JaeMin98/Guided-DRL-Framework-Using-Automated-Curriculum-Scheme-for-Accurate-Motion-Planning/Curriculum_builder/data_points/logs/upper_outliers.csv
x,y,z,run_time,distance,delta6,delta3,joint1,joint2,joint3,joint4,joint5,joint6
-0.273947011,0.077920615,0.206322471,32.3,0.589890222,7.725804577,3.629629061,2.798260599,0.479587896,0.351780566,1.931547404,1.518098591,0.646529521
-0.11057086,0.080066848,0.080310389,27.25,0.520019472,7.552816501,4.397959214,2.639755152,0.759444942,0.99875912,0.91487534,1.840927114,0.399054834
-0.2170721,0.196177258,0.546119583,23.9,0.534998781,5.435838752,4.251396847,2.409164772,0.548306153,1.293925922,0.663178145,0.490831648,0.030432113
-0.261903079,-0.388269617,0.06361081,32.55,0.750842515,6.265262403,5.191716156,2.174905169,1.702191305,1.314619682,0.791785335,0.110142128,0.171618784
-0.359125994,0.039052579,0.119817248,20.45,0.69918593,8.697422257,3.890620488,2.985540561,0.901217584,0.003862343,1.65983792,1.352661894,1.794301955
0.204015565,-0.188074836,0.557967109,33.45,0.236427566,5.712982701,2.607501156,0.750778441,0.529193503,1.327529212,1.902947633,0.520876354,0.681657558
-0.459342591,0.100159613,0.216103821,21.75,0.763200197,8.097299575,5.266248317,2.934331722,1.240221505,1.09169509,0.623012443,0.716743888,1.491294927
-0.005089328,0.044056652,0.644390709,22.55,0.349460732,4.24441823,3.061122234,1.693085992,0.01764397,1.350392272,0.642268854,0.412716024,0.128311117
0.105509801,0.040120143,0.085468612,58.9,0.381591034,5.329801953,2.086082099,0.311091597,0.596171671,1.178818831,1.785218566,0.15604524,1.302456048
-0.247470054,-0.214184382,0.506016882,19.8,0.562252526,5.299929111,4.353995132,2.427361732,0.679834378,1.246799022,0.01379462,0.646013468,0.286125891
-0.213724964,0.42536342,0.157591436,30.4,0.696778242,8.533822556,4.624902446,2.048172957,1.411479617,1.165249871,1.395201707,0.703334468,1.810383935
-0.344662545,0.142504403,0.465648917,24.0,0.628822141,7.794663156,4.877581382,2.74769845,0.797214496,1.332668436,0.105109955,0.714837114,2.097134706
0.282362451,0.288553514,0.424310895,44.6,0.289025326,4.053979219,2.951188421,0.795185439,0.882705706,1.273297276,0.379228986,0.48814191,0.235419902
-0.116712426,-0.264034995,0.541492426,20.15,0.478878097,7.682076593,3.493464918,1.953834689,0.448948732,1.090681498,1.968037692,0.935562799,1.285011183
0.383098032,-0.284501267,0.206165201,25.35,0.379774681,6.76917382,3.328893501,0.65251757,1.385625121,1.29075081,1.96808901,0.772271366,0.699919943
0.380936948,0.06646812,0.446516522,19.85,0.133262002,5.025050322,2.215357958,0.174085461,0.799879919,1.241392579,0.109639718,0.64936005,2.050692597
-0.252768348,-0.008412242,0.566698574,38.8,0.537521176,5.442297326,2.152998361,0.071345792,0.576502906,1.505149663,0.755290961,1.145263682,1.388744322
-0.027948036,-0.256572617,0.561709232,19.85,0.412626427,6.153798761,3.493626534,1.648216075,0.525161178,1.320249281,0.442205066,0.611278392,1.606688769
0.442580362,0.172437538,0.185188903,27.7,0.346584086,7.020048448,2.961276312,0.386563913,1.367975447,1.206736952,0.955980468,0.848565636,2.254226033
-0.340163723,0.030932486,0.347588916,34.65,0.613083767,8.3279346,3.675064532,2.990552,0.428035498,0.256477034,1.868991014,1.027065847,1.756813206
-0.054585314,0.111310432,0.057631333,149.55,0.503600468,8.043347403,3.796892712,1.928855365,0.826659062,1.041378285,1.93764561,0.198963447,2.109845635
-0.347642478,-0.064038991,0.488787653,33.4,0.620612073,7.027416871,4.963468041,2.939220295,0.728162755,1.29608499,1.457250261,0.101712138,0.504986431
0.114363217,-0.036480305,0.075591324,28.9,0.386593407,5.373820149,2.007503403,0.150659994,0.772322847,1.084520562,1.212802948,1.615641364,0.537872434
-0.184236399,0.435072866,0.090298695,21.1,0.712257811,6.63969613,4.885792677,1.980482557,1.615960022,1.289350098,1.004634362,0.675702129,0.073566961
0.144896529,-0.445658457,0.10572579,19.8,0.563951659,8.626097498,4.117282057,1.279054328,1.564264732,1.273962996,0.835920046,1.152945178,2.519950217
-0.10848458,-0.131650337,0.613212913,29.1,0.438195275,6.591294223,2.627295367,0.841334298,0.454922626,1.331038443,1.251359084,0.777224377,1.935415395
-0.210974925,0.393377331,0.335928625,21.25,0.625716262,9.452497355,4.635724135,2.03914698,1.176281564,1.42029559,1.848120394,0.976015219,1.992637607
0.077729508,-0.013474595,0.636401503,21.5,0.280883422,6.828374805,1.374294681,0.029749147,0.064586998,1.279958536,2.068053946,1.058881914,2.327144265
-0.206792233,-0.019926104,0.597510977,34.85,0.502921913,4.080611872,1.924351911,0.093153273,0.581817218,1.24938142,0.494506382,0.505713543,1.156040037
0.079311269,-0.445326266,0.32722466,168.35,0.493786085,4.816481579,3.880613326,1.394718255,1.148170132,1.337724939,0.047425405,0.39712957,0.491313278
-0.382778028,0.247882557,0.314598738,27.5,0.704611054,7.651855222,5.01121712,2.565860248,1.150673162,1.294683709,1.566296946,0.415154843,0.659186313
-0.006663909,-0.010397787,0.643994911,22.55,0.347994322,5.416271649,3.486796125,2.177468852,0.137316244,1.172011029,0.084367521,0.235766729,1.609341275
-0.221622008,-0.419168619,0.199892884,22.3,0.683147982,8.825091699,4.54012024,2.0392015,1.32677227,1.17414647,1.385571445,0.846660579,2.052739435
0.056064075,-0.012384752,0.640426821,26.85,0.298647481,6.564111814,1.588221625,0.350868779,0.018391477,1.218961368,2.05486761,0.842666296,2.078356282
-0.105374461,0.082726081,0.080521868,92.35,0.516436026,6.463114276,4.229375872,2.458530607,0.633722807,1.137122458,0.186207454,0.159673123,1.887857827
0.215170754,-0.039396393,0.590001022,25.5,0.173470014,2.909204053,1.680925463,0.208324148,0.308058609,1.164542706,1.044803057,0.113074911,0.070400623
0.217174898,0.310065945,0.454164148,20.15,0.314984939,5.831337,2.857012249,0.980751251,0.739610097,1.136650901,1.055390104,0.006891174,1.912043473
0.103483972,0.35090197,0.468937632,19.9,0.389111661,8.707274628,3.339583559,1.246322388,0.792476242,1.300784929,2.010073526,1.219280647,2.138336895
-0.073601712,-0.194113666,0.596777872,20.65,0.426182735,6.312029512,3.424656332,1.936333136,0.291022843,1.197300353,1.539028867,0.410358515,0.937985798
-0.34469454,-0.18807715,0.44148568,20.35,0.639819743,5.620912173,4.754399576,2.640800858,0.844575738,1.26902298,0.198772623,0.327562754,0.340177219
0.032600565,-0.090560118,0.12596135,20.75,0.393465819,7.559540909,2.668795887,1.019496008,0.320166968,1.329132912,1.574088168,1.556350828,1.760306027
0.462702066,0.120991826,0.148599568,22.1,0.362905249,5.753083533,2.965213084,0.255937922,1.46989691,1.239378252,0.16959415,0.489324754,2.128951545
-0.392561715,-0.10154241,0.423295925,30.95,0.667073588,6.863109356,5.188707098,2.892612847,0.93670744,1.359386811,1.077150136,0.350690126,0.246561997
-0.12678567,0.165424367,0.582899975,19.8,0.453758277,6.54336934,3.412671243,2.244154825,0.177430701,0.991085718,0.432468091,0.902160224,1.796069781
-0.010074698,-0.22594011,0.583736801,21.3,0.389396364,7.341399939,2.974150166,1.599618892,0.282736597,1.091794678,1.779466186,0.610334021,1.977449566
0.386544923,-0.029146613,0.449523734,61.5,0.124991187,4.949906458,2.3186288,0.074128199,0.874158007,1.370342594,1.094079763,0.45837365,1.078824245
-0.447708846,-0.163439657,0.121659839,20.45,0.794738941,8.120081736,5.597756892,2.792677098,1.538755556,1.266324238,0.271932562,0.540471591,1.709920691
-0.219768135,0.020158806,0.573894844,21.05,0.507966155,7.532782582,4.306052942,2.990264891,0.287288856,1.028499196,0.702156355,0.792095383,1.732477902
-0.236373441,-0.009696684,0.567905452,325.15,0.521986943,4.885544661,2.108975438,0.032941171,0.557693004,1.518341263,0.096954686,1.553669894,1.125944644
0.037933216,-0.248129237,0.575627721,67.05,0.367941754,6.484756407,3.279541819,1.427074102,0.486979822,1.365487896,0.723892454,0.294270098,2.187052036
0.077601303,0.078444076,0.632316887,19.85,0.288522486,7.002052197,2.174807579,0.822453032,0.10396467,1.248389876,1.902246543,0.606297719,2.318700356
0.132464957,0.356125771,0.45878907,63.6,0.381657924,7.331271464,3.311185589,1.216398639,0.805294022,1.289492927,1.15483624,0.475942844,2.389306791
-0.103712157,-0.041795942,0.626979052,19.9,0.422030463,8.148955916,3.920291175,2.675047499,0.062501806,1.18274187,1.093080894,0.94078441,2.194799437
0.376696486,0.293580276,0.211075605,41.0,0.381817503,5.131106718,3.312304255,0.660870903,1.367939334,1.283494018,0.40151208,0.377145658,1.040144725
0.417001455,-0.177825537,0.308569523,22.05,0.262224021,7.576202486,2.751384484,0.427533237,1.114230952,1.209620295,1.48626607,0.972281636,2.366270297
0.394469815,-0.107748187,0.414879729,21.25,0.167707545,4.126083065,2.357146141,0.261146627,0.885841379,1.210158134,0.345002544,0.138734965,1.285199415
-0.005218277,0.477944826,0.195907649,23.4,0.597231118,8.480710392,4.23232536,1.570365109,1.392591696,1.269368554,1.833541128,0.703471635,1.711372269
0.307005024,0.311994422,0.35794007,23.3,0.322440399,6.107591068,2.979547494,0.793525503,0.995916067,1.190105923,0.378712758,0.432227088,2.317103728
-0.110660492,0.368272567,0.451225768,22.45,0.527678015,4.979934521,3.97963892,1.85846051,0.841966723,1.279211686,0.146474155,0.084802417,0.76901903
-0.156821415,-0.011211345,0.220073813,25.45,0.472424476,8.85284006,4.106804771,2.935761435,0.142352394,1.028690941,1.473691916,1.77963471,1.492708664
0.059356451,-0.061785374,0.137080606,21.75,0.363348499,6.786408008,2.462932867,0.90683517,0.261094262,1.295003435,0.420423092,1.787377378,2.115674671
-0.442073196,0.137488344,0.257145568,20.2,0.74213865,9.403341367,5.162228615,2.82327938,1.18090443,1.158044805,0.727290338,1.003459881,2.510362534
0.123729116,-0.020350534,0.628370707,27.0,0.246074363,5.260213459,1.64287729,0.213619864,0.153819141,1.275438285,1.20651831,0.12228466,2.288533199
0.087545181,-0.073248438,0.09132214,22.9,0.389307057,5.825463015,2.530297637,0.742893553,0.713638104,1.07376598,0.246785704,1.902583494,1.145796179
0.000639938,0.000151852,0.645498643,25.4,0.342983028,6.782719681,3.487948883,2.065941874,0.094742473,1.327264536,0.229350285,0.57614882,2.489271693
0.070874481,0.089281736,0.632325744,20.45,0.296025971,6.819832458,3.879563468,2.241014383,0.344177439,1.294371645,0.111010867,0.398890862,2.430367261
-0.095462691,-0.00587525,0.160245791,53.5,0.451080579,8.668944083,4.375998636,2.981603436,0.061062774,1.333332426,1.819520051,1.162148445,1.311276951
-0.235617782,0.00593567,0.563355776,377.25,0.519956244,5.645755184,2.12075992,0.062756973,0.513327167,1.54467578,1.346936358,1.80179412,0.376264787
-0.230010247,0.004108355,0.585950825,331.4,0.520992595,5.336852855,1.971921782,0.011361459,0.565034201,1.395526122,0.257052127,0.719231656,2.388647291
-0.371122428,0.302831082,0.156037273,21.45,0.757027411,7.790578149,5.180717642,2.457809104,1.466202424,1.256706114,1.96369328,0.452966624,0.193200602
0.070671223,-0.070521628,0.098401692,111.15,0.390760933,6.988701999,2.707565195,0.924698752,0.569050466,1.213815977,0.947812001,1.34740359,1.985921214
0.082850073,-0.063105052,0.095286633,51.95,0.386200889,6.5423977,2.359184127,0.55722984,0.661388997,1.140565289,0.486540243,1.722931486,1.973741844
0.200910649,0.020774779,0.600577912,27.25,0.184871819,5.630449567,1.65531024,0.101382485,0.304819256,1.249108499,1.555848629,0.424884295,1.994406403
0.433027639,-0.192963167,0.157502377,21.25,0.372344985,7.533214124,2.976103767,0.439331963,1.398889669,1.137882135,1.516537613,0.893591474,2.146981269
0.053831527,0.283185293,0.537330621,20.05,0.370461215,8.250565702,2.821758072,1.337017422,0.434204014,1.050536636,1.886361928,1.133489526,2.408956177
0.458892546,-0.104461531,0.257721143,37.7,0.277901883,5.785704345,3.099717498,0.221187505,1.382536682,1.49599331,1.9343657,0.501674323,0.249946825
0.00957831,-0.476115162,0.104419502,102.55,0.63099257,6.034206552,4.511797759,1.548473826,1.624438849,1.338885084,0.316277981,0.281935193,0.924195618
0.01427262,-0.080912422,0.116148374,28.6,0.41017439,7.300961288,3.013404394,1.248235705,0.477964565,1.287204124,0.635995184,1.662877909,1.988683801
-0.100991267,-0.092053657,0.068514904,109.75,0.523205176,7.018553431,4.089910674,2.288819061,0.843795062,0.95729655,0.802151071,1.869500096,0.256991591
-0.357279949,0.133089568,0.456399113,23.35,0.638580917,8.456872841,4.837014258,2.777709334,0.79776283,1.261542095,1.328181368,0.296082709,1.995594506
0.228537726,-0.104586165,0.573300008,21.9,0.182162278,4.779275223,2.030092207,0.43233466,0.400289774,1.197467773,0.314688944,0.309358591,2.125135482
-0.239299777,-0.021612725,0.25042621,20.85,0.53697589,6.948642016,3.673235264,2.964286773,0.1457928,0.563155691,1.853727705,1.146891041,0.274788006
0.098016579,-0.048026274,0.633833192,92.6,0.269676664,4.709964246,1.995999578,0.467686426,0.162049817,1.366263336,1.495172918,0.381235402,0.837556348
-0.109729903,-0.016461892,0.420317668,19.9,0.376811396,8.497026829,3.893219121,2.804500401,0.604560945,0.484157775,1.315446748,1.31951777,1.968843191
-0.424105939,-0.192980171,0.233758138,36.2,0.743295929,10.35995987,4.970343099,2.687070781,1.214003549,1.069268769,1.990550531,1.144424291,2.254641948
-0.074192235,0.010044125,0.638743712,20.6,0.400348506,4.318971034,1.597513866,0.076557314,0.296946179,1.224010373,1.970618625,0.657960977,0.092877566
-0.087933485,-0.013418469,0.162571282,83.5,0.443873856,6.360658123,4.342936717,2.970759017,0.070579057,1.301598643,0.084191753,1.630511116,0.303018538
0.063659314,-0.065933128,0.108075121,23.7,0.385502305,5.895415805,2.746175875,0.937328488,0.588415781,1.220431606,0.608363597,1.842611608,0.698264725
-0.32549236,0.154151811,0.483583255,34.0,0.614390265,8.014277263,4.795886797,2.700619596,0.763713114,1.331554087,0.579493203,0.402369301,2.236527962
-0.398010279,-0.182028175,0.362404927,29.75,0.692421235,8.195171448,5.056405854,2.715758082,1.044849366,1.295798406,1.789872187,0.497000477,0.85189293
0.045058157,-0.461430516,0.282930322,33.8,0.532400194,8.070129327,4.043333686,1.491663833,1.231291768,1.320378085,1.481533473,0.838268708,1.706993461
-0.068447983,0.24045702,0.575620482,20.0,0.437751757,6.193769728,3.652753286,1.836457895,0.468432648,1.347862743,1.155909547,0.585710793,0.799396102
0.086450673,-0.116116138,0.624091841,42.05,0.2898478,5.180885718,2.634420921,0.924793812,0.277339152,1.432287958,0.521532299,0.362332933,1.662599565
0.280524414,-0.228642611,0.478705689,37.9,0.234377189,5.600094562,2.60955396,0.684448096,0.708498926,1.216606938,0.220940871,0.486455156,2.283144574
-0.453064193,-0.063379691,0.295919957,46.15,0.734689839,8.10302184,5.302864838,2.980095073,1.135255539,1.187514226,1.718696962,0.944261763,0.137198278
0.056346876,0.35951059,0.478734667,23.15,0.419514457,7.932884515,3.764458385,1.413448522,0.861415562,1.489594301,2.05143604,0.478689534,1.638300556
0.059340095,0.056814887,0.126726097,42.45,0.370999535,6.867320916,2.314459182,0.629804695,0.386592271,1.298062216,0.546381828,1.79409412,2.212385787
0.080481449,-0.457070318,0.28550513,39.65,0.514058281,5.435395174,3.898644956,1.398361643,1.208654208,1.291629104,0.48943323,0.517162698,0.53015429
-0.363129306,-0.180042847,0.423098671,26.85,0.655100085,7.416567111,4.873602164,2.680152823,0.906175591,1.28727375,0.077319256,0.216618622,2.249027068
0.093874305,0.040632518,0.097337564,56.85,0.376251593,4.81835858,2.08047718,0.262996622,0.646780264,1.170700295,0.792731106,1.729205756,0.215944537
-0.058099535,-0.465243775,0.063071191,40.8,0.675200052,5.830180358,4.730235153,1.698199809,1.70681123,1.325224114,0.330798732,0.229385411,0.539761063
0.016709454,0.112526766,0.080138096,24.45,0.443727772,5.324309335,3.277017871,1.481905586,0.647312362,1.147799924,0.995861523,0.808488217,0.242941724
-0.362276563,-0.117585633,0.458640666,201.65,0.640544006,7.67744255,5.038204083,2.824581327,0.848615296,1.36500746,1.353835851,0.383467289,0.901935327
0.044876765,-0.087084084,0.103256305,24.55,0.403630301,5.85591728,2.727524764,0.98325363,0.46047786,1.283793274,1.591196903,0.966384446,0.570811166
0.142863892,0.171429355,0.58092527,25.65,0.260467894,7.004145955,2.307247213,0.932980715,0.279718859,1.094547638,1.509959506,1.06213288,2.124806357
0.112355368,-0.116819552,0.617785118,23.7,0.27037514,7.389320758,2.387070288,0.827462993,0.249459117,1.310148179,1.906990049,0.617337093,2.477923327
0.141329523,0.412691156,0.366797394,28.5,0.435780299,6.616313137,3.788759462,1.240886509,1.110832553,1.437040399,2.072444327,0.441034142,0.314075206
-0.051790156,0.437830628,0.342438224,25.85,0.548373283,5.549253197,3.751224255,1.690597774,0.974365876,1.086260605,0.73460042,0.375673205,0.687755317
0.35599106,-0.319779911,0.143622276,25.35,0.437846,5.888201898,3.454129963,0.732411905,1.485793899,1.235924159,0.112923068,0.321466063,1.999682804
-0.463699883,-0.123735127,0.165865822,23.2,0.786162093,9.645874194,5.694875102,2.878447133,1.485417449,1.331010519,1.616966906,0.496706508,1.837325678
0.135054741,0.458537427,0.120690607,45.95,0.567996336,8.405022338,4.259078056,1.286013118,1.601397347,1.371667591,1.588937228,0.404811503,2.152195551
-0.099085773,0.016834732,0.181481343,21.45,0.44202403,8.981438036,4.115613045,2.787209781,0.034230373,1.294172892,1.870243536,1.603009394,1.392572061
-0.025321944,0.479221348,0.159925234,33.1,0.622328066,6.716757107,4.444054307,1.622769064,1.494939371,1.326345871,1.780567635,0.418974268,0.073160897
-0.202106145,-0.018574221,0.598598355,33.35,0.498913313,5.860715937,1.934670955,0.060178631,0.526800799,1.347691525,0.868231172,0.833967883,2.223845926
-0.4295663,-0.18343747,0.063398495,41.05,0.807647414,9.249094115,6.117845764,2.742118512,1.820333261,1.55539399,2.018637062,0.344988417,0.767622871
0.080948369,0.128628635,0.619613995,20.25,0.29551368,6.21954618,2.394340129,1.015401102,0.170447897,1.20849113,1.275436553,0.488196893,2.061572604
0.151895043,0.122088396,0.604906101,30.3,0.242924022,6.182032296,2.392857841,0.686826742,0.346084071,1.359947028,1.881624362,0.349617609,1.557932485
-0.191948099,-0.005591627,0.602964695,27.8,0.490622288,5.61569927,1.795644462,0.039479891,0.589339045,1.166825526,1.572847482,0.346974427,1.900232899
-0.08783518,0.206441931,0.584527212,34.4,0.438724174,5.919224451,3.330846498,1.966490562,0.275094953,1.089260984,1.773973683,0.371393321,0.443010949
-0.215404194,0.078641951,0.581944098,22.05,0.51185936,8.38033868,4.162048628,2.785803023,0.287376584,1.088869022,1.762883893,0.497441697,1.957964462
0.462403006,-0.082921407,0.246752009,26.65,0.279955971,5.666608448,2.574026074,0.190775175,1.227753345,1.155497554,2.079177699,0.77236142,0.241043255
0.229068847,-0.057190143,0.580636038,22.25,0.166352172,6.592683337,1.946531245,0.288815928,0.399037856,1.25867746,1.838800778,0.963179607,1.844171707
0.170681983,-0.16353634,0.577628275,24.7,0.240930454,5.454753003,2.420408109,0.740497529,0.428402752,1.251507828,0.335797976,0.454147949,2.244398969
0.223572024,0.168242994,0.550465607,35.7,0.211842041,4.612429786,2.449552203,0.647306756,0.541783178,1.26046227,0.039528351,0.40873493,1.714614301
-0.171267359,-0.077945336,0.607279309,23.8,0.479222106,3.741480119,2.239766592,0.41896326,0.496788459,1.324014873,0.726777267,0.543535686,0.231400574
-0.002615998,0.013504957,0.646181581,23.05,0.346138234,6.659111902,2.999117881,1.568517172,0.003313452,1.427287257,1.076084985,0.302901344,2.281007692
0.31477485,-0.345468944,0.276269084,28.1,0.380773319,5.649034334,3.452263196,0.837696174,1.267229258,1.347337764,0.81980596,0.27007948,1.106885698
-0.028824419,0.010540361,0.529522071,28.9,0.312290756,7.05340186,3.38793652,2.730997616,0.597261321,0.059677583,0.11331207,1.834114423,1.718038848
-0.226671003,0.058128202,0.58311498,26.3,0.520136499,8.394285203,4.442904049,2.869761824,0.364353342,1.208788883,2.036964919,0.688830542,1.225585692
-0.179674359,0.141253478,0.588478727,30.2,0.494569835,8.963787252,4.232666657,2.476044132,0.415391543,1.341230981,1.755667569,0.448481961,2.526971066
0.257368202,-0.295723096,0.438788411,23.75,0.295984551,5.165788937,2.801700863,0.855706253,0.790869271,1.155125339,0.102738687,0.240065271,2.021284117
-0.214769599,-0.196647956,0.546062446,34.4,0.533069072,8.664630048,4.162503938,2.413514698,0.516840738,1.232148502,1.839225136,0.619566734,2.04333424
-0.389247507,0.206391366,0.356356687,23.35,0.691553654,9.443817038,5.071098042,2.657765637,1.079196855,1.33413555,1.635397045,0.51375446,2.223567491
-0.155226636,0.448971135,0.134213239,23.5,0.683026197,8.409680362,4.725680454,1.929086333,1.528238955,1.268355165,1.907443159,1.065210457,0.711346292
-0.375704992,-0.129940779,0.42012535,21.4,0.655435352,9.19147498,4.793970982,2.773947511,0.831875754,1.188147718,1.252447642,1.162454135,1.982602221
0.208639813,0.130742189,0.578439958,39.4,0.206860594,6.425331217,2.382078493,0.548771118,0.471295896,1.362011479,1.993213427,0.57766643,1.472372867
-0.186158169,0.122419612,0.589379542,35.75,0.495815373,8.830933111,4.579620327,2.53887067,0.504934769,1.535814888,1.95510598,0.204762633,2.091444171
0.44360774,0.071732728,0.33520816,93.9,0.2126279,5.256933476,2.665563749,0.157354627,1.14306063,1.365148492,1.568567045,0.381300412,0.641502271
-0.289451588,0.107015891,0.534168149,53.3,0.576022797,5.635275838,4.753977791,2.788823906,0.621365362,1.343788523,0.257060813,0.375990346,0.248246888
0.059881536,-0.080963704,0.09659917,109.4,0.399899879,5.476265102,2.862169923,1.065024236,0.609234734,1.187910953,0.779393326,1.473722078,0.360979775
-0.08024773,-0.082142536,0.62879471,21.3,0.408635851,6.444090733,2.360025691,0.775207615,0.423950509,1.160867567,1.107867651,0.57111387,2.405083521
-0.341267514,0.3269746,0.091929301,27.85,0.768296414,7.434509719,5.196431629,2.379166296,1.58565963,1.231605703,0.776149303,0.483866201,0.978062586
-0.063607789,0.056893077,0.637349099,23.55,0.394688551,5.523836933,2.427729252,0.737007655,0.147910712,1.542810885,0.368108161,0.355827229,2.372172292
-0.264110405,-0.241879129,0.482011724,20.65,0.585667959,8.922875664,4.391209132,2.372499814,0.743322417,1.275386901,2.042365269,0.972688562,1.5166127
-0.182589882,0.083588243,0.601995748,24.45,0.488651574,7.305160159,4.353045212,2.698553699,0.345138278,1.309353235,0.474628281,0.154136254,2.323350412
0.051957342,0.025985092,0.643047925,52.5,0.304252671,3.527061475,1.845913135,0.440225813,0.055238422,1.3504489,0.276803378,0.208718221,1.195626741
-0.311137792,0.344257191,0.288674325,22.45,0.687027631,9.174951173,4.853994444,2.302006588,1.224784538,1.327203319,1.652962108,0.515419414,2.152575207
0.026656353,0.020305198,0.641401524,20.25,0.321068702,4.910500206,1.982694779,0.737738072,0.12079771,1.124158997,0.736926153,0.237813709,1.953065565
0.161688607,-0.395609057,0.376911275,25.3,0.412686741,6.894275231,3.250549223,1.18506331,0.925048509,1.140437404,2.083401641,0.489014771,1.071309596
0.077497904,0.461324298,0.066280179,20.6,0.616550052,7.496392419,4.237256733,1.400894292,1.631038835,1.205323607,0.67944277,0.328313152,2.251379763
0.373603962,-0.287092135,0.254423985,34.5,0.352549862,8.130614674,3.275195502,0.667199749,1.293504044,1.314491709,1.79907997,0.70926383,2.347075372
-0.010750601,-0.43647159,0.359021185,32.5,0.521966656,5.761407557,3.983444854,1.598579315,1.053294235,1.331571305,0.168802318,0.81537157,0.793788814
-0.074453035,-0.05375334,0.21935677,24.4,0.404001783,9.148279767,4.507234572,2.715501234,0.53005129,1.261682049,1.005972603,1.855232069,1.779840523
-0.427752212,0.127548395,0.340503398,20.1,0.711603051,7.769021059,5.189589922,2.849170875,1.076015468,1.264403579,1.749012283,0.384192363,0.446226491
-0.108134781,-0.341087675,0.483743457,42.6,0.509730968,8.158813288,3.785235655,1.868507826,0.700416682,1.216311148,2.025083059,0.611665116,1.736829457
0.221634303,-0.28976631,0.475769342,21.9,0.297006367,6.838605928,3.364826956,0.915650898,0.897004686,1.552171371,0.492178137,0.521451058,2.460149776
-0.018869047,0.116154026,0.33098251,20.7,0.323482216,5.416741844,3.245368949,1.740598328,0.581786104,0.922984517,0.052996418,1.624916138,0.493460339
0.407439574,0.145297391,0.332530771,23.6,0.224100404,7.778068251,2.217904622,0.376041922,0.913173472,0.928689229,1.858046427,1.206402463,2.495714738
0.268535186,0.086777377,0.550623269,22.55,0.149350663,6.353635005,1.919192187,0.314532651,0.45127828,1.153381256,1.667114214,0.465842516,2.301486089
-0.056544603,-0.001433335,0.554993422,20.8,0.347028078,6.262874262,3.655583423,2.875786513,0.550582569,0.229214341,2.063986052,0.338328798,0.204975989
0.039542947,-0.105401338,0.083172712,56.55,0.426947994,7.762736664,2.971396782,1.17964197,0.609008053,1.182746759,1.78219505,0.607202859,2.401941973
-0.25429996,0.017390694,0.552605327,21.45,0.535673534,9.566187127,5.148747154,2.99241301,0.619439533,1.536894611,1.32541313,0.907289892,2.184736952
0.149775365,-0.140842024,0.598239826,19.9,0.249261244,6.840616828,4.19982069,2.39594021,0.592248462,1.211632019,0.950493886,0.331735014,1.358567238
-0.253752737,-0.019607001,0.528224096,21.45,0.530165592,7.972825348,4.167572234,2.998747678,0.316484116,0.85234044,0.92325616,1.418897529,1.463099425
-0.05248992,-0.072251627,0.124681314,24.3,0.446916358,6.155057941,3.730468322,2.092501206,0.367488866,1.27047825,0.487303732,1.629006149,0.308279738
0.191468311,0.155994231,0.577825213,21.25,0.228365224,5.576034064,2.521207947,0.691078822,0.469594627,1.360534498,1.51220433,0.524852683,1.017769105
-0.283023152,0.150395031,0.501073975,22.45,0.574472971,9.295153113,4.115334462,2.598473135,0.517485389,0.999375938,1.91885337,1.462239841,1.798725439
-0.051328055,0.113780404,0.075886694,42.85,0.488689252,7.174623241,3.819491969,2.03490729,0.779514411,1.005070268,0.243071805,1.68300018,1.429059287
0.187648364,-0.141490516,0.584186416,32.75,0.224303719,5.937889024,2.32222775,0.643065126,0.398335822,1.280826803,1.265978192,0.471350389,1.878332693
-0.433839493,-0.136110167,0.315145537,21.55,0.722718995,8.3238077,5.178782895,2.844865611,1.112860776,1.221056508,1.072926755,0.261518916,1.810579133
-0.001352482,-0.480026364,0.166321285,70.95,0.609297524,7.780422647,4.573092564,1.571741202,1.552157186,1.449194176,0.391937376,0.339372789,2.476019919
-0.44374783,-0.160045021,0.247874031,21.25,0.750426854,7.704884339,5.28405658,2.794353773,1.259867157,1.22983565,0.687172956,0.402946188,1.330708615
-0.091980334,0.070562241,0.630724391,21.25,0.417449189,6.184981688,2.437561697,0.68659861,0.234307863,1.516655224,2.017622804,0.247218166,1.48257902
-0.09810846,-0.421519492,0.362671383,30.3,0.561390196,7.45887294,3.937617756,1.77721042,0.977650842,1.182756494,1.475661153,0.899207792,1.146386239
-0.108207844,-0.178709668,0.595524335,26.7,0.447395873,6.90332204,3.578929493,2.126823054,0.281898469,1.17020797,1.16142144,0.318341054,1.844630052
-0.444019758,0.159900663,0.243261136,36.5,0.751778307,7.907680276,5.256938157,2.79779423,1.254960211,1.204183716,1.22953886,0.400318723,1.020884536
0.136945471,-0.444794021,0.282913016,35.3,0.485878794,7.669814945,3.852595381,1.263899732,1.247839049,1.340856601,1.979815888,0.630884429,1.206519247
-0.052170702,0.402534039,0.421368431,23.5,0.513615238,8.482737998,4.193490696,1.707396465,1.00356497,1.482529261,1.334957376,0.584569004,2.369720922
0.260414408,-0.206247928,0.509878356,25.6,0.221612211,7.128081747,2.597916961,0.692847746,0.644812791,1.260256424,1.592794293,0.796692621,2.140677871
0.058644277,-0.100221235,0.631524427,30.0,0.307110735,6.873887502,2.459206444,1.040310228,0.133511445,1.28538477,1.755219804,0.433110896,2.226350358
-0.03320064,0.076800643,0.234566148,27.3,0.365539789,9.371000261,3.600887892,1.744236499,0.596851053,1.25980034,1.945882779,1.420323635,2.403905956
-0.030174962,0.251590596,0.57272273,23.8,0.414892367,5.977828791,3.795693963,1.692551036,0.576573756,1.526569171,1.570787635,0.413171997,0.198175195
-0.005611419,0.05254092,0.643628754,42.2,0.35056018,5.62080811,2.957262953,1.425979019,0.18006835,1.351215584,0.665665791,0.284337887,1.713541479
-0.265700596,-0.168124934,0.525400186,38.75,0.566627877,8.855254935,4.502921767,2.600595808,0.605954119,1.29637184,1.05715261,0.834157398,2.461023161
-0.133697968,0.250063978,0.550611258,21.9,0.487532594,5.820494746,3.708448445,2.062538843,0.468712901,1.177196701,0.128325017,0.384424784,1.5992965
0.310951304,0.008881257,0.532053539,25.2,0.112395466,5.231451179,2.017847068,0.020445128,0.6377646,1.35963734,0.942031142,0.298264962,1.973308007
-0.143690427,0.383106537,0.417366138,21.95,0.561559118,9.143103693,4.215429914,1.923477542,0.945219023,1.346733349,2.050722264,0.573146482,2.303805033
0.026407068,0.241885542,0.57998855,84.6,0.372868908,4.445806484,3.605680315,1.666912612,0.60721443,1.331553273,0.553177696,0.166932058,0.120016415
-0.420527295,-0.162301298,0.331178129,23.5,0.712806725,6.969302802,5.18638272,2.771681152,1.119563655,1.295137913,0.281967856,0.317629016,1.183323211
0.229502186,-0.117267714,0.571416156,35.6,0.188091037,3.688211637,2.287956388,0.463860272,0.487536358,1.336559758,0.833612641,0.300140222,0.266502386
0.218849,-0.340889762,0.418636757,32.5,0.344407062,6.660351324,3.600386008,0.983252254,1.058019948,1.559113806,2.062176328,0.800561048,0.19722794
0.16423011,0.288276953,0.512301224,28.1,0.317111198,7.503444822,3.265664122,1.068776973,0.744257997,1.452629152,1.629553264,0.680590919,1.927636518
-0.21834591,-0.054457644,0.587730439,20.35,0.51321756,8.879898159,4.567876237,2.853758273,0.397859662,1.316258302,1.630864502,0.908066034,1.773091385
0.311683363,-0.10620872,0.514772137,23.45,0.143693675,5.303547472,2.275872065,0.313481503,0.660578978,1.301811584,2.048111169,0.69822555,0.281338688
0.380793623,0.27991895,0.17183802,26.05,0.396796901,6.067657542,2.974300903,0.632874252,1.31146359,1.029963062,0.578465908,0.40220584,2.112684891
-0.357353915,0.068986947,0.477404193,22.25,0.629790256,8.620158601,4.924533972,2.951134403,0.729911588,1.243487981,1.000235104,0.436545977,2.258843549
-0.076542419,0.460830187,0.067200081,23.25,0.679069576,8.270845669,4.574169931,1.722812366,1.6325126,1.218844965,1.500014779,0.711413074,1.485247885
-0.059621155,-0.037718541,0.641261558,28.2,0.391045552,4.646995352,2.134889799,0.555445416,0.215912344,1.363532038,1.242341581,0.406807424,0.862956548
0.08937235,-0.129222367,0.619993597,50.7,0.290904392,3.501524616,2.560210503,0.967291459,0.253186346,1.339732697,0.232437324,0.403921964,0.304954825
0.079451396,-0.048909412,0.103211673,116.75,0.378991285,5.202581167,2.252625373,0.431357003,0.619384645,1.201883726,0.552300885,1.777937545,0.619717363
0.011239157,0.012405628,0.646178142,23.4,0.335511696,3.345305152,2.355386031,0.970538743,0.031858423,1.352988865,0.525102971,0.228871915,0.235944236
-0.345817079,-0.314265856,0.276487422,61.35,0.705078359,8.750793163,5.013337143,2.402968007,1.262096896,1.34827224,1.656634311,0.417900152,1.662921557
0.431568527,-0.117104636,0.301093921,22.9,0.239372671,6.771107042,2.304949975,0.292358592,1.012102138,1.000489244,1.426968215,1.039807092,1.999381761
-0.195449685,0.042527309,0.602399848,20.0,0.49542741,3.833908437,2.02669344,0.211983111,0.536034202,1.278676127,0.098014697,0.245432643,1.463767657
-0.393080089,0.272561554,0.176561975,30.3,0.757129722,7.906443192,5.221204681,2.536428345,1.420550894,1.264225443,0.166449822,0.584273728,1.934514961
0.191357242,-0.293075121,0.493788022,21.15,0.309352995,5.242585806,2.969062631,0.992644537,0.701761056,1.274657038,1.780047159,0.430132277,0.06334374
0.352511602,0.022771365,0.481589621,22.25,0.103165771,4.842303592,1.831011056,0.081454193,0.632500497,1.117056367,0.956538633,0.780572993,1.274180909
0.094615171,0.024778614,0.094955055,338.05,0.376603157,6.689943076,2.025228387,0.170977895,0.702692888,1.151557604,0.396185425,1.862668284,2.405860981
-0.468920395,0.07863314,0.211948155,23.45,0.771004199,6.91403074,5.490856095,2.962367162,1.326396959,1.202091973,1.075775517,0.113446211,0.233952917
0.071705614,0.053619187,0.11001119,23.35,0.377699695,8.072366647,2.623648189,0.835663833,0.451702542,1.336281814,1.708501766,1.362444089,2.377772603
0.067906171,-0.209916256,0.591149729,27.55,0.33152853,4.639063518,2.835456332,1.255074644,0.342903978,1.237477709,1.078855314,0.405144589,0.319607283
-0.090950623,-0.452003623,0.293869529,20.25,0.591983095,6.642076541,4.135794519,1.768564242,1.152287503,1.214942774,1.832915959,0.455828905,0.217537158
-0.142719755,-0.012976348,0.615986107,22.65,0.45027057,4.27580013,1.759239916,0.169552264,0.508303499,1.081384152,0.917879016,0.267814338,1.330866861
-0.147662671,0.451693088,0.098463634,33.95,0.696360998,5.651166515,4.846834931,1.887031493,1.627614879,1.332188559,0.301789648,0.415604122,0.086937814
0.02932548,-0.368364891,0.4729315,76.15,0.440487234,6.05652541,3.636141901,1.486656118,0.805141873,1.344343909,0.553845206,0.280338359,1.586199943
-0.038296695,0.225000838,0.588377881,24.7,0.411140629,6.312127114,3.437359308,1.741927968,0.397304114,1.298127226,0.232455056,0.309579133,2.332733617
0.182655057,-0.044828591,0.606693372,42.35,0.201588592,7.575723805,4.714485858,2.920257089,0.522902423,1.271326347,1.454385152,0.609587401,0.797265394
-0.078389323,-0.203355211,0.593746254,22.05,0.433201142,6.373812767,3.613879042,1.942734085,0.376841134,1.294303823,0.14173477,0.180497696,2.43770126
-0.071160873,0.032332182,0.206805391,34.4,0.405728416,8.921867581,4.51370673,2.60094302,0.596855299,1.315908411,0.454921357,1.652436796,2.300802697
-0.002565537,-0.475403417,0.222414227,22.3,0.584200113,8.206125856,4.130443983,1.571435697,1.318707275,1.240301011,1.691959839,0.548942834,1.8347792
-0.12673019,0.077452724,0.612770327,21.8,0.44104082,8.253459117,3.935956668,2.691483819,0.122801327,1.121671522,1.586075184,0.299078552,2.432348713
-0.41211153,-0.166093139,0.341772972,20.55,0.704278902,7.998045779,5.019737006,2.769605745,1.04308547,1.207045791,1.712393282,0.668184812,0.597730679
0.404289606,0.256102504,0.151543029,20.6,0.401856703,6.102942816,3.273036244,0.564510922,1.466813158,1.241712164,0.260183142,0.443228612,2.126494818
-0.148643282,0.423264987,0.3316997,22.9,0.600928008,6.79129939,4.185543206,1.910939517,1.064919164,1.209684524,1.211476317,0.491955996,0.902323871
-0.392955706,0.037232288,0.104573288,33.7,0.736163496,9.356092388,4.515515311,2.997559335,1.133879894,0.384076081,2.019269989,1.053858859,1.76744823
-0.101323645,-0.089290372,0.623996634,20.35,0.425928345,6.21982062,3.78148852,2.445226763,0.128802617,1.20745914,0.951212152,0.642449991,0.844669958
0.010319937,0.473660907,0.109579112,20.65,0.626212741,8.183336572,4.265771746,1.560754901,1.526886826,1.178130019,1.997978095,0.726962112,1.192624618
0.006992556,-0.47059784,0.108523224,35.15,0.625782683,6.559284503,4.099654787,1.559109882,1.467886813,1.072658092,1.325965403,0.367808252,0.765856061
0.376201195,0.132132005,0.43366131,19.8,0.171579554,5.215665718,2.618865875,0.343853001,0.912010688,1.363002186,1.823264889,0.555573287,0.217961667
0.004438364,-0.002753523,0.643705166,22.8,0.338951277,6.299533032,2.695357694,1.327864699,0.156862949,1.210630046,1.326486276,0.672771428,1.604917634
-0.268066275,-0.388585672,0.246063185,26.45,0.685914467,8.76953455,5.075941579,2.165419069,1.406636594,1.503885916,1.957986104,0.222725596,1.512881271
0.23820856,-0.388396032,0.31563608,31.75,0.405598804,7.82163917,3.44965661,1.025973657,1.143177009,1.280505944,2.047881198,0.566943598,1.757157764
-0.237704731,-0.011466841,0.560454933,24.6,0.521321899,7.298224343,2.15362584,0.12753448,0.590137266,1.435954093,2.08288259,1.009278726,2.052437187
0.38318108,-0.193569442,0.37718144,28.9,0.231840232,4.533163211,2.639551745,0.463438354,0.964937961,1.211175431,1.179327435,0.343588527,0.370695504
0.392129625,-0.253228222,0.062721854,23.15,0.462576792,6.351359149,3.432872403,0.578888144,1.639355818,1.21462844,1.455918275,0.559181327,0.903387144
-0.17570707,0.1317353,0.593370024,31.65,0.489953507,4.815072676,4.27088049,2.503951245,0.412584467,1.354344778,0.230019164,0.18159054,0.132582481
0.016910621,0.081350369,0.476310843,22.65,0.266991647,6.001010397,2.153076283,1.309511401,0.585592289,0.257972594,0.262289373,1.709657948,1.875986793
-0.004958292,0.026315119,0.644768861,24.35,0.347895434,5.184898327,2.980241169,1.664396366,0.054735001,1.261109802,0.367672722,0.119046343,1.717938094
0.090597779,-0.040360071,0.096439781,26.65,0.378537822,6.398637952,2.172476774,0.323457354,0.698326927,1.150692493,0.448304652,1.918956443,1.858900083
-0.397534176,-0.242249151,0.056012373,29.2,0.799439155,6.225062639,5.457221045,2.594276915,1.654353639,1.208590491,0.050834935,0.367633255,0.349373404
-0.106038347,0.216250688,0.581091033,25.1,0.456904967,7.274363579,3.798322814,2.005373899,0.450034418,1.342914497,1.216284566,0.185200683,2.074555517
-0.221848615,0.408229518,0.280163125,21.25,0.653828414,8.873573794,4.499827409,2.079730186,1.193775607,1.226321616,2.073599608,0.710704656,1.589442121
-0.147622962,0.010189655,0.071857614,27.7,0.547170125,8.48066516,4.779921171,2.982167945,0.739574084,1.058179142,0.77621473,0.626485277,2.298043981
-0.229652734,0.352069765,0.392782642,20.0,0.609642877,7.035063514,4.391020205,2.148945795,0.954145114,1.287929296,0.010710352,0.736717369,1.896615588
0.025715587,-0.478522619,0.150045918,22.95,0.604036416,7.285813954,4.378815272,1.505429973,1.534236869,1.33914843,0.803247398,0.075489372,2.028261912
0.188527699,-0.294482655,0.490396764,22.55,0.310832855,5.074875085,2.792477653,1.001373158,0.640088474,1.151016021,0.378805867,0.435281627,1.468309938
-0.102255953,-0.036160241,0.085898704,37.0,0.505094532,7.227795887,4.556795193,2.761032452,0.590114421,1.20564832,1.779312405,0.643621431,0.248066858
-0.127747554,0.190692251,0.582311156,21.25,0.464158129,5.988594063,3.645036734,2.165875038,0.342732982,1.136428714,0.078230903,0.234662569,2.030663857
0.106137844,0.038605633,0.632065247,21.05,0.261726674,6.809774206,4.402361474,2.795582996,0.360224865,1.246553613,0.069712309,0.22403347,2.113666954
0.472907349,-0.034768405,0.223216625,22.3,0.293320758,7.070889129,2.665338184,0.053211464,1.338964099,1.273162621,1.797202439,0.905156329,1.703192177
-0.32111377,-0.308296541,0.345317414,38.45,0.669071608,7.878905265,4.801553173,2.381887988,1.0980875,1.321577685,1.819290596,0.548105439,0.709956057
0.022253695,-0.096870155,0.094206575,427.6,0.425760701,6.974937745,3.30875786,1.462938381,0.688267717,1.157551762,0.583074442,1.771665607,1.311439836
0.048894456,-0.030982981,0.642226787,35.4,0.306419786,7.448379945,4.107536536,2.592180212,0.233178586,1.282177738,1.256616161,0.396739621,1.687487627
0.002489168,0.189783274,0.607430581,39.15,0.370969894,4.169685694,3.415556538,1.586025366,0.475159616,1.354371556,0.148717253,0.330599859,0.274812045
0.439116338,0.044847725,0.353166572,25.6,0.193670755,6.128704523,2.427442134,0.094434278,1.057619107,1.275388748,2.050981328,0.612574639,1.037706423
-0.012064431,-0.014486832,0.537960947,36.35,0.299631527,7.627435261,3.275375453,2.550865992,0.602727768,0.121781692,0.318344444,1.822582408,2.211132956
-0.040590814,0.37782624,0.454755953,27.15,0.487749899,6.26445283,3.592336463,1.663167892,0.75600646,1.173162112,1.118343416,0.150582561,1.403190388
0.106050944,-0.430177305,0.341086238,23.7,0.467500032,6.747105018,3.915460301,1.32568847,1.18236374,1.407408091,0.102602517,0.319109039,2.409933161
-0.229908301,0.071199644,0.564552944,20.15,0.519645206,7.882038144,4.429238267,2.842176234,0.421455367,1.165606666,0.011195631,0.946563401,2.495040844
-0.246745246,-0.405623166,0.109844387,20.1,0.728035484,8.823358444,4.922510844,2.131062406,1.556719889,1.234728549,1.933596413,0.766951009,1.200300178
0.065625413,-0.047648275,0.637580877,27.55,0.293618661,5.857285476,1.869811119,0.639459411,0.019867239,1.210484469,1.156093017,0.395031726,2.436349614
0.407852856,-0.179849041,0.345187441,183.3,0.243504159,5.725557203,2.899232285,0.418603632,1.122777827,1.357850826,0.50963785,0.300359484,2.016327584
0.417546324,0.058845062,0.386698505,22.3,0.167327148,5.14037764,2.224828737,0.157287208,0.921002802,1.146538726,0.746046992,0.084652041,2.084849871
-0.106619748,-0.463824623,0.191797047,28.65,0.640953486,8.100592885,4.353583161,1.813048111,1.356740306,1.183794744,1.846777398,0.818753071,1.081479256
0.151437609,-0.080152885,0.614584056,27.2,0.232694154,5.146050425,4.492454705,2.654557456,0.384617746,1.453279503,0.167077488,0.418962507,0.067555725
-0.063207888,0.349929991,0.48823314,28.9,0.484587765,8.68634077,3.789753511,1.751565458,0.734708536,1.303479516,2.058868287,0.477617295,2.360101677
-0.435210264,0.17182555,0.245504676,26.05,0.745649289,8.252738482,5.042296689,2.754607316,1.19218159,1.095507783,1.390189016,0.194967582,1.625285194
-0.005586195,0.031625723,0.643485583,25.75,0.347953865,6.586403905,2.754765453,1.309728643,0.20532325,1.23971356,2.03594971,0.291873452,1.50381529
-0.041155908,0.183600926,0.60815644,40.75,0.400752947,3.883256049,3.179705959,1.352967074,0.460611911,1.366126974,0.108313383,0.224407723,0.370828984
-0.10471654,0.146341627,0.606683845,21.4,0.437028162,7.472913074,3.611252997,2.222569403,0.211960599,1.176722995,1.038471069,0.734849744,2.088339264
-0.128377544,-0.138085942,0.607661262,23.9,0.455109283,4.95887585,3.955904626,2.317879271,0.315121412,1.322903943,0.37915394,0.388074556,0.235742728
0.01340708,0.011486778,0.642433015,21.5,0.331458043,7.214528349,3.861428957,2.50059533,0.226630081,1.134203547,0.702638105,0.357485457,2.29297583
-0.419866422,-0.212035514,0.09340056,21.5,0.793113312,9.848001967,5.614591572,2.700350991,1.626975769,1.287264811,1.95800588,1.10494111,1.170463404
0.142657105,-0.030902812,0.623288853,28.95,0.232492432,5.273268338,1.709557632,0.19176185,0.211936554,1.305859228,1.970664004,0.594709205,0.998337497
-0.212313473,0.01970657,0.295077778,20.75,0.497728217,7.490665135,3.793711788,2.975197149,0.155876969,0.66263767,1.675228976,1.258347049,0.763377322
-0.159568714,0.451702628,0.190797675,50.85,0.665255189,8.253054884,4.706172,1.902750153,1.446738732,1.356683114,1.615971003,0.271408291,1.65950359
-0.109896663,0.052889348,0.630008555,30.45,0.430168454,4.263155118,2.122495154,0.445410683,0.34965117,1.327433301,0.19605753,0.532071096,1.412531339
0.033684539,-0.066541477,0.639587354,28.9,0.32094818,7.274048225,3.562250628,2.023667735,0.281172135,1.257410758,1.129951536,0.37608221,2.20576385
0.297088331,0.084297214,0.52777932,25.8,0.133355432,5.368244,1.890497866,0.283674956,0.501167736,1.105655174,1.135710737,0.328196966,2.013838431
-0.447289039,-0.148846172,0.075690969,29.1,0.81037331,9.988180552,5.869647906,2.81670812,1.690681312,1.362258474,1.480720595,0.519080174,2.118731876
-0.125313425,0.128772067,0.607547856,22.25,0.449600673,6.932132835,3.714825518,2.360308796,0.203094648,1.151422073,1.527254387,0.58761168,1.10244125
0.399611609,-0.148236753,0.386414119,31.25,0.203668201,4.817946155,2.623882462,0.353823196,0.987142295,1.28291697,0.22760685,0.318784107,1.647672736
-0.079230985,0.037066437,0.152810895,20.55,0.444171582,6.693446811,4.007574575,2.682595432,0.01386437,1.311114772,0.094392421,1.541318597,1.050161218
0.41737665,0.124687423,0.367336613,42.5,0.20507918,5.724212901,2.661660282,0.289418516,1.047444387,1.324797378,0.656448301,0.4700216,1.936082718
0.101245167,-0.078261548,0.09008484,19.95,0.385199282,5.26762909,2.285492392,0.57224881,0.671623818,1.041619764,0.55827646,1.680118905,0.743741333
0.128109494,-0.006029578,0.626578513,29.1,0.24134212,5.968728686,1.573410286,0.11496542,0.164940595,1.293504271,1.548689033,0.848297253,1.998332114
-0.185475198,-0.054782844,0.593697496,21.15,0.484255587,7.182673517,4.169523103,2.850903848,0.200391173,1.118228081,0.05338872,1.038415153,1.921346541
-0.195585013,-0.004732863,0.598112126,34.45,0.492307097,5.088906144,1.901426568,0.043429238,0.512790774,1.345206555,1.187672972,1.156139488,0.843667116
0.299920652,0.285299648,0.407624266,30.05,0.288022665,6.254975891,3.041585882,0.754017838,0.952771658,1.334796386,0.732616874,0.618282307,1.862490827
-0.029247732,0.284775912,0.55135665,33.5,0.428589025,5.873252059,3.764136219,1.67981843,0.627485879,1.456831911,0.510586933,0.264020291,1.334508615
-0.203356267,0.089802509,0.589136282,31.7,0.504688879,6.422189716,4.319848197,2.726435938,0.344756061,1.248656198,0.015347599,0.63508245,1.45191147
-0.208545121,0.1331608,0.577075774,27.4,0.515224758,8.727942846,4.372434089,2.589740807,0.453542029,1.329151252,1.708753269,0.250742085,2.396013404
0.41597235,0.22525357,0.239428664,29.85,0.330158519,5.373457175,3.169206716,0.511195909,1.328583854,1.329426954,1.712082695,0.108702744,0.38346502
-0.052511978,-0.132545292,0.624469767,31.05,0.39703475,4.857646254,2.928195367,1.198394541,0.380237989,1.349562837,0.533419489,0.496988448,0.899042951
-0.354488111,-0.143157091,0.455008855,29.25,0.638013006,8.107388681,4.933781705,2.775092776,0.837020628,1.321668301,1.272493788,0.114664312,1.786448876
-0.023951989,0.156125172,0.617022852,20.0,0.379715554,6.777407472,3.266159166,1.754407577,0.219434134,1.292317455,0.764297503,0.774424292,1.972526511
0.005679784,-0.085654079,0.636489228,20.75,0.344293054,4.580066808,2.734691732,1.411667538,0.060487345,1.262536849,1.37177947,0.053983261,0.419612346
-0.401814812,0.044729915,0.373739301,25.35,0.672326053,8.88035906,4.748153953,2.990218126,0.833744553,0.924191274,0.864821672,1.018481825,2.248901611
0.15877571,-0.07537579,0.610913626,24.4,0.224475598,5.251954144,4.452589468,2.698368407,0.519197942,1.235023119,0.030880206,0.544754204,0.223730268
0.334828372,-0.331976595,0.075013705,34.8,0.490099296,5.868700148,3.839576844,0.7808786,1.699059136,1.359639108,0.04968591,0.258270372,1.721167022
0.010429215,0.228024719,0.585637793,36.25,0.377135284,6.436245519,3.095366256,1.542533903,0.343388621,1.209443731,1.178556468,0.636461019,1.525861776
0.071045732,0.072374967,0.11016058,24.3,0.381030891,5.698770026,2.719522237,0.975993149,0.509351802,1.234177285,1.116618293,1.646013221,0.216616275
0.173259013,0.105481985,0.599143322,30.65,0.220846495,6.120577399,2.03611601,0.550616235,0.283014049,1.202485726,1.770258052,0.475881185,1.838322151
0.100527423,0.05083664,0.08390877,158.1,0.386378869,6.527383986,2.224153192,0.441992758,0.603186,1.178974434,1.757862012,0.300819257,2.244549525
0.115310541,0.46435733,0.191520635,34.2,0.543135784,7.671015537,4.055413621,1.338656411,1.417161081,1.299596128,1.766913597,0.692006827,1.156681492
0.176930158,0.245787038,0.537198952,20.9,0.283132652,6.804986767,2.743466084,0.93700946,0.55561408,1.250842544,1.49672441,0.299602796,2.265193478
-0.068536854,0.054727022,0.210810099,21.55,0.403829397,7.284522477,4.439928964,2.626660896,0.53164347,1.281624599,0.734065867,1.706089427,0.404438219
0.141079742,-0.160941208,0.594562584,26.5,0.262813955,4.867254631,2.423647859,0.85544394,0.327649913,1.240554006,1.838428425,0.395059444,0.210118903
-0.195774628,-0.239691709,0.533209319,47.2,0.531152705,7.515392292,4.241198118,2.246838946,0.632025501,1.362333671,1.390983363,0.311058381,1.572152429
0.149504542,0.261795558,0.53554604,23.85,0.305922055,5.694896105,2.717718443,1.064505905,0.50390969,1.149302848,1.976185888,0.631363904,0.36962787
-0.397869232,-0.246611462,0.086496733,24.95,0.787284588,8.665588589,5.352513305,2.567696711,1.600776011,1.184040584,0.652041647,0.301288315,2.359745322
0.003380911,-0.467517238,0.273729763,19.85,0.558601539,7.951189156,4.181820672,1.570376036,1.265760277,1.345684358,1.456317456,0.586352064,1.726698965
0.388752317,-0.274939307,0.127976749,30.4,0.425496552,6.59934012,3.341256347,0.621447326,1.49993584,1.219873181,0.875822256,0.608797521,1.773463996
0.040833886,-0.01683333,0.643940074,28.95,0.312215926,4.907968788,1.659776567,0.341633299,0.003775067,1.3143682,1.468387415,0.536868845,1.242935961
0.252830522,-0.404787296,0.128639588,25.8,0.50423076,6.113818083,3.772257181,1.019114885,1.522271477,1.230870819,0.485558194,0.112058364,1.743944345
0.402332176,0.204064179,0.316024527,20.35,0.269806945,6.630125525,2.755714655,0.491987837,1.08436479,1.179362029,1.624180249,0.92495845,1.32527217
-0.069488272,0.224788421,0.584343296,87.05,0.433188414,6.111590881,3.605341536,1.876398898,0.415633389,1.313309249,1.919636988,0.375742184,0.210870173
-0.005367833,0.424362591,0.390161513,26.2,0.505517394,8.238896332,3.875062626,1.587610723,0.985514333,1.301937571,2.056755231,0.533857759,1.773220716
-0.238119473,-0.33673293,0.411964201,25.6,0.607071137,8.528053728,4.523738804,2.187755143,0.967128886,1.368854775,1.327681533,0.471262637,2.205370755
0.081210365,0.044781563,0.632233349,25.85,0.278735928,5.204947661,1.709346113,0.363595584,0.085698886,1.260051643,2.034670692,1.174804237,0.286126618
0.11850232,0.063965203,0.619115322,19.9,0.249332067,5.832329335,1.556303429,0.486181227,0.040642681,1.029479521,1.817160544,0.493298475,1.965566887
-0.457884109,0.096505374,0.080570188,25.8,0.809765779,9.578668707,5.600855012,2.935242912,1.550013395,1.115598705,1.114753831,0.40585183,2.457208034
-0.025391288,0.201834658,0.597295841,22.05,0.392889377,5.943884927,3.232060258,1.668361983,0.304350833,1.259347442,0.765067068,0.816980673,1.129776929
0.363349686,0.297888228,0.22767663,28.3,0.372288883,4.643663984,3.307302004,0.681014034,1.31788779,1.30840018,0.205854543,1.06348759,0.067019846
-0.234612819,-0.026713006,0.576797311,20.95,0.52324474,8.606470516,4.378839836,2.996205876,0.304341069,1.078292891,1.853182166,0.811539751,1.562908762
0.243809834,-0.098911993,0.563817905,21.25,0.168754314,6.820122349,1.997881322,0.408340908,0.415206545,1.174333869,1.659765953,0.71752043,2.444954643
0.052690959,0.173996004,0.610226113,30.45,0.329920329,5.760089122,3.663770954,1.877129449,0.491790748,1.294850757,1.041899425,0.322790343,0.731628401
0.195914415,0.422157867,0.244111482,20.0,0.466305223,7.951569099,3.318335521,1.143933828,1.152879723,1.021521969,1.687074571,0.60628769,2.339871318
0.024100134,0.002942488,0.643758289,30.1,0.32403221,3.886869094,1.430301597,0.14294646,0.08729115,1.200063988,0.056845653,0.016955669,2.382766175
0.160439747,0.168321549,0.583959926,23.5,0.252227632,6.110660093,2.630898686,0.842520006,0.430284507,1.358094173,1.202963024,0.831338903,1.445459479
0.270074699,-0.160677069,0.524551714,23.25,0.186918976,6.699065294,2.238228074,0.512963139,0.55435956,1.170905375,1.965940849,0.81945686,1.675439511
0.131971713,-0.428088564,0.324169918,25.35,0.46085302,6.87793882,3.374864632,1.264065011,1.020404667,1.090394954,0.984573031,0.251314723,2.267186434
-0.027233857,-0.074205786,0.128133418,37.65,0.427171547,7.098618502,3.525812743,1.831551838,0.394081731,1.300179174,0.337952395,1.871006153,1.363847212
-0.043729365,0.055942017,0.481802448,42.95,0.319850476,7.105330176,2.722628506,1.986021946,0.608902219,0.127704341,1.876057449,1.69891216,0.807732061
0.226911168,0.087724748,0.577369842,20.65,0.176830668,5.090527605,1.957903977,0.388388958,0.377504105,1.192010914,1.974978788,0.676587854,0.481056986
0.073631064,0.065365071,0.101134024,30.3,0.386032697,6.724475181,2.498738616,0.706392907,0.631214742,1.161130967,0.090493008,1.787798386,2.347445171
0.003815154,-0.079236232,0.111672082,53.05,0.419593022,7.394346257,3.360393399,1.595026116,0.474764583,1.2906027,0.329764073,1.407095472,2.297093314
0.22684395,-0.296224148,0.456226692,25.15,0.300166917,7.963356107,2.952171295,0.876084876,0.809239141,1.266847277,2.057749885,1.366519077,1.586915851
0.042497699,0.058988879,0.639278404,20.95,0.31295661,5.68034628,2.140575119,0.924280263,0.005039818,1.211255039,0.739635305,0.328440931,2.471694925
-0.003138182,0.083587413,0.145549799,28.7,0.400171779,6.790842842,3.169399702,1.70842578,0.14499687,1.315977052,0.409628189,1.752159965,1.459654986
-0.269819529,-0.029012026,0.262410048,20.8,0.562557547,7.883158321,3.702164332,2.986992216,0.290732718,0.424439398,0.83876952,1.789226102,1.552998367
0.178597886,-0.393163378,0.375052973,27.5,0.406574027,5.86399044,3.50417746,1.15067555,1.029868633,1.323633277,1.647366361,0.316108658,0.396337961
-0.149262794,0.016781422,0.622028753,59.65,0.458809345,6.524537321,1.828191787,0.10363452,0.414901596,1.309655671,2.046295525,0.501970336,2.148079672
0.068362982,0.273339245,0.553295896,20.3,0.359847896,7.037765243,3.080135382,1.313329572,0.50432131,1.2624845,1.343096563,0.603908716,2.010624582
0.290270988,-0.208973004,0.486150841,37.5,0.217916505,5.754405489,2.769026551,0.631809989,0.77193579,1.365280772,1.813578895,0.306576721,0.865223322
-0.358991941,0.175034247,0.428805413,21.5,0.649785717,8.734632423,4.728472719,2.676639114,0.840803754,1.211029851,1.825937848,0.655135749,1.525086107
-0.139536444,0.10250462,0.605125494,19.8,0.454478095,5.405983313,2.346198583,0.636747532,0.596026478,1.113424573,0.061418655,0.841529277,2.156836797
0.001206775,-0.406251646,0.421951257,26.35,0.485381538,8.054241003,3.835481112,1.56837771,0.92748507,1.339618332,2.032269161,0.448765521,1.737725209
-0.251447542,-0.406380884,0.15259803,22.1,0.714083372,7.969908007,4.931384101,2.125004656,1.491938925,1.314440521,0.025593801,0.718021543,2.294908562
-0.055427285,-0.012996257,0.640119252,24.05,0.385297913,8.309252573,4.196441505,2.965611804,0.047848404,1.182981296,1.406459525,0.584246868,2.122104675
-0.342941521,0.33265134,0.169096769,22.4,0.741574276,9.086628746,4.959862621,2.368239598,1.403195413,1.18842761,2.084954568,0.520199128,1.521612429
-0.229866017,-0.09999552,0.572560255,22.1,0.526446248,7.1451673,4.288532282,2.731064948,0.382426459,1.175040874,0.017789068,0.438280944,2.400565006
0.176189976,0.169647804,0.575004673,24.3,0.241365874,5.997662627,2.326028788,0.780859503,0.365490989,1.179678296,0.861824557,0.65567154,2.154137741
-0.232464186,-0.000423619,0.585818042,83.7,0.523239543,5.488952984,1.995387752,0.008495631,0.521021583,1.465870538,1.170719256,0.516855104,1.805990872
-0.456394366,-0.140973183,0.203708471,30.85,0.770425773,9.34140203,5.499698719,2.834176571,1.380927136,1.284595012,1.514865721,0.6126204,1.71421719
0.063638537,0.062374923,0.235577597,29.65,0.287313743,6.46766104,2.778476909,0.993807551,0.530129302,1.254540055,1.731513813,1.579415163,0.378255156
-0.099173778,-0.022692327,0.101239831,21.8,0.491715306,8.47545562,4.569782451,2.836649399,0.465178123,1.267954928,1.647999622,0.822223685,1.435449863
-0.232163121,0.03003819,0.344378641,20.0,0.506836603,8.707047377,3.427596743,2.928161942,0.096179073,0.403255729,1.562988755,1.576151094,2.140310785
-0.439306796,0.179858819,0.113405498,22.3,0.793968098,8.096276134,5.456010216,2.753066494,1.516784067,1.186159655,0.369608393,0.449845983,1.820811542
-0.055203164,-0.183420496,0.605379512,24.4,0.410224572,7.326157263,3.753689606,1.837019414,0.419770401,1.49689979,1.094734643,0.18005779,2.297675224
-0.099650326,0.092932441,0.066629952,292.4,0.523583428,7.892521147,4.319101088,2.507103464,0.856793231,0.955204393,0.820096475,1.877264832,0.876058753
-0.253592432,0.222363695,0.506849158,20.8,0.571114798,7.632929606,4.360618927,2.423589396,0.663343097,1.273686434,1.554351474,0.472749152,1.245210053
0.387196904,-0.279663638,0.117793371,102.0,0.435464226,6.902601967,3.558072741,0.624891347,1.592181346,1.341000048,0.493489549,0.414258086,2.436781591
-0.122052158,0.088512742,0.620209495,33.4,0.442242553,4.192932209,2.327682578,0.625674741,0.459076687,1.242931151,0.10732975,0.538242259,1.219677622
-0.061100391,0.077487318,0.101494148,50.45,0.469880696,6.862659347,3.868641868,2.084134738,0.566859905,1.217647225,0.936887598,1.485731489,0.571398392
-0.147568387,-0.036422878,0.61994144,32.4,0.45749621,7.211424641,4.830999556,2.913850898,0.359498685,1.557649974,1.708454386,0.53992232,0.132048379
-0.064584437,-0.074501546,0.17355667,23.1,0.424910081,8.057702838,3.820670469,2.349349529,0.190618221,1.28070272,0.363818236,1.403700381,2.469513751
0.11182369,0.15737789,0.60567736,102.15,0.282811424,3.206697246,2.575607814,0.955826277,0.318582902,1.301198634,0.137408974,0.28338816,0.2102923
0.113191822,0.07120457,0.055963043,31.6,0.409690618,5.844334696,2.321074576,0.471682239,0.932307746,0.917084591,0.585731317,1.88803521,1.049493593
-0.193636932,0.026703728,0.593953787,26.95,0.489719327,4.624378641,1.909031237,0.199653121,0.607333393,1.102044723,0.774860473,0.495106252,1.445380679
-0.058027881,0.276737093,0.551487788,24.0,0.443897298,6.979945282,3.655903364,1.79638655,0.533812612,1.325704203,0.812623072,0.785401247,1.726017599
0.288107557,-0.060110982,0.542612718,22.3,0.130270831,4.073300503,1.893507956,0.205144723,0.500433626,1.187929606,0.84051341,0.427660827,0.91161831
0.327670959,0.329591458,0.252362823,21.0,0.378793671,8.792082494,3.152966069,0.81602102,1.206850445,1.130094604,1.979155278,1.145009993,2.514951152
0.438757435,-0.104322814,0.330416165,30.15,0.224077545,5.053489855,2.708324817,0.229131001,1.140467479,1.338726337,1.812945812,0.530739651,0.001479574
-0.037654038,-0.115650412,0.06153026,22.6,0.491011704,8.062471775,3.787826743,1.913658044,0.911608053,0.962560647,0.15855828,1.862750005,2.253336746
-0.042402878,0.294562518,0.54259592,24.15,0.44181309,6.38217519,3.649841176,1.705273684,0.592390148,1.352177344,1.216824496,0.56224515,0.953264368
0.069745665,0.068712772,0.099421247,194.2,0.390007283,7.088990068,2.719634294,0.923640121,0.583999137,1.211995036,0.870469499,1.468914454,2.029971822
-0.10933577,-0.457224204,0.259427775,23.15,0.615808097,7.466906185,4.437978959,1.818958404,1.290844996,1.328175558,1.812697517,0.739972088,0.476257622
0.086221826,-0.015163206,0.105761715,45.35,0.370579177,4.807735311,2.079304999,0.267289009,0.583454817,1.228561173,0.40637964,1.676449679,0.645600993
-0.01069326,-0.041304717,0.641661298,20.5,0.351971052,6.170706636,3.178940828,1.847784487,0.025437275,1.305719065,0.128899839,0.788002149,2.07486382
0.087565654,0.0919233,0.629325955,26.0,0.283978568,6.420567476,4.021731937,2.335635178,0.348629784,1.337466974,0.473053556,0.388088697,1.537693286
0.420808398,0.132456764,0.32716752,23.3,0.227371567,7.427784837,2.756718464,0.34370464,1.13198919,1.281024633,2.07772435,1.550037461,1.043304563
0.18815686,-0.221106493,0.536916308,21.1,0.258301048,5.718386444,2.283210476,0.861705133,0.40340003,1.018105313,0.385514892,0.587625345,2.46203573
-0.133297975,0.383387396,0.419482139,22.95,0.554064797,7.658347469,4.029209592,1.890093703,0.886794206,1.252321683,1.743541841,0.730393506,1.155202529
0.077968136,-0.028024706,0.2195754,24.1,0.283400215,8.223969897,2.329586858,0.559763171,0.475398785,1.294424902,2.036462437,1.568398397,2.289522206
-0.047734123,-0.079218392,0.14961487,21.25,0.428098733,6.630814634,3.406330039,2.067265883,0.04190098,1.297163175,0.236907647,1.425732983,1.561843965
-0.448295576,0.106017331,0.284847536,35.45,0.737041013,9.73729249,5.156755325,2.894275267,1.132844332,1.129635727,2.087200042,0.815713183,1.677623939
-0.412871035,-0.050071227,0.129827481,20.7,0.744241385,9.082093868,4.458657934,2.9928535,1.064210081,0.401594353,1.220289698,1.050677166,2.35246907
0.065533056,0.123383585,0.624983843,25.45,0.306850768,4.870418345,2.577212767,1.091487596,0.189816468,1.295908703,1.414447219,0.49336098,0.385397379
-0.112040879,-0.053884203,0.621377148,21.45,0.428115704,8.751533963,3.969638656,2.796948138,0.071336325,1.101354194,2.040615546,1.165332927,1.575946834
-0.013139243,-0.098912221,0.096589007,23.1,0.445730787,6.268191547,3.435190896,1.611670579,0.669250307,1.154270011,0.443985567,1.782936081,0.606079003
-0.292304403,-0.249950191,0.450633038,20.65,0.612735617,6.775909118,4.435850906,2.435084548,0.785526997,1.215239362,1.534424875,0.455254084,0.350379252
-0.03962027,-0.033783224,0.643634963,21.4,0.375458959,5.741055172,3.793724237,2.427735617,0.029478053,1.336510566,0.160036416,0.342340565,1.444953953
0.091374278,0.023593041,0.633097442,20.45,0.269986306,5.285941925,1.61263029,0.310757987,0.055230394,1.246641909,0.727243269,0.829439389,2.116628978
0.430348262,-0.210115117,0.171873672,22.75,0.370322513,5.616875474,3.144427541,0.452493596,1.432839114,1.259094832,0.96539732,0.490568099,1.016482513
0.262718063,0.393199482,0.20791579,23.0,0.451126356,5.725071912,3.338724002,0.972848465,1.270812196,1.095063341,1.718176934,0.636830955,0.03134002
-0.253583524,-0.398145761,0.087023861,22.55,0.739105516,5.817242314,4.95895799,2.137026071,1.596358826,1.225573093,0.340006212,0.380522466,0.137755646
0.032291977,-0.239471501,0.421782958,20.15,0.335149375,5.73703834,1.675811426,1.439537205,0.121840845,0.114433376,1.21073315,0.405163062,2.445330702
0.000286125,0.229596394,0.583454193,21.65,0.384056702,4.51577153,3.145667333,1.560470444,0.350995774,1.234201115,0.290040341,0.772359167,0.307704689
-0.342602486,-0.275862209,0.30127728,20.9,0.680926996,8.617277514,4.382385805,2.436350488,0.975432724,0.970602593,0.864378798,1.259749798,2.110763113
-0.441141784,0.085156183,0.33551411,31.9,0.718966379,6.875899469,5.589450156,2.952982239,1.189325073,1.447142845,0.654728986,0.365523613,0.266196714
0.045208439,0.101788065,0.632773814,24.55,0.317686981,6.7016967,3.619446719,1.968927411,0.325632948,1.324886359,1.239866073,0.547704407,1.294679502
0.116973324,-0.039493902,0.074053222,25.9,0.38734472,7.004267565,2.047050076,0.24553263,0.690646752,1.110870693,1.520739802,0.907503968,2.528973719
0.354812366,0.314742642,0.152640096,26.4,0.428091932,6.209160092,3.280991833,0.716948923,1.408121032,1.155921879,0.649523736,0.757601926,1.521042597
0.147421781,-0.103026473,0.610723112,52.6,0.240479761,5.798922944,2.159540185,0.610220452,0.270178367,1.279141365,1.614431104,0.435775157,1.589176497
-0.171685426,-0.050831671,0.609901254,40.4,0.477005015,7.256622018,4.322770267,2.851694607,0.241267455,1.229808204,0.433693241,0.479003797,2.021154714
0.058108144,-0.06457185,0.207269666,38.65,0.311277586,5.339771311,2.616363984,0.87817805,0.476966939,1.261218995,0.165902409,1.806427419,0.7510775
-0.06455392,0.160591011,0.611567854,22.9,0.410869317,6.067466479,2.8734011,1.157153814,0.520286535,1.195960751,0.896712325,0.109883884,2.18746917
-0.114004667,0.005044678,0.410396539,26.15,0.381193808,8.635864033,3.97397202,2.921417656,0.587438474,0.46511589,1.900438846,1.377693465,1.383759701
-0.2267346,-0.000305062,0.574900507,50.9,0.51453088,7.122419324,2.045690095,0.08757111,0.5410968,1.417022185,1.584843961,1.612996097,1.878889171
-0.234734187,0.107732269,0.570786051,32.55,0.532045704,8.168739832,4.55676465,2.724165088,0.490192949,1.342406613,1.862001629,0.599806134,1.15016742
-0.240859039,-0.019405826,0.558507528,24.0,0.524222954,7.444555034,4.448438479,2.990050842,0.336989443,1.121398193,1.030124415,1.611217293,0.354774847
-0.124465706,0.09852826,0.61840368,31.25,0.445673656,9.090993122,4.038862468,2.506303219,0.23778803,1.294771219,2.043509255,0.72555986,2.283061539
0.107504659,0.035862073,0.081705648,397.1,0.383805288,6.641814881,2.197490769,0.357609168,0.78981144,1.050070161,0.185355627,1.908710796,2.350257689
-0.018119516,0.001312823,0.644912723,21.1,0.357269946,6.796624582,4.236093368,2.879568337,0.081181758,1.275343274,1.8564903,0.274181128,0.429859785
-0.250054697,0.383005392,0.305196201,25.25,0.655061359,6.860329621,4.495882186,2.152186778,1.126070977,1.217624431,0.833578633,0.522053488,1.008815313
-0.330089505,-0.340640576,0.104439973,22.45,0.759994633,7.550372386,5.094730153,2.341171295,1.548821592,1.204737265,0.195782601,0.376884378,1.882975254
-0.302584669,-0.077097597,0.530905018,34.55,0.583405677,6.964591076,4.831041307,2.88499891,0.623126777,1.32291562,0.659736782,0.2794821,1.194330887
-0.3787897,-0.191946267,0.369604456,20.5,0.675997076,8.036430534,4.512515833,2.664080926,0.857695938,0.990738969,1.991275129,0.619149726,0.913489846
0.080108772,-0.029030081,0.218334971,20.15,0.283007916,6.050429023,1.993981374,0.163189217,0.559056292,1.271735864,0.805896227,1.915655885,1.334895538
0.006594908,0.128032624,0.053053451,19.8,0.474822396,8.808510489,3.512948211,1.624278814,0.851021542,1.037647855,1.674700552,1.111768874,2.509092853
0.106729541,0.016892871,0.081562373,325.85,0.382925805,6.202358678,2.081509244,0.213001138,0.796407924,1.072100182,0.282142465,1.885288313,1.953418657
0.083652836,0.012568591,0.636643948,20.7,0.277059231,7.191768539,4.516286713,2.948734714,0.311222959,1.25632904,0.828284675,0.675966529,1.171230623
-0.337208147,0.056148808,0.501554027,23.85,0.610902334,9.60588481,5.314397041,2.969371255,0.815868662,1.529157124,1.533438094,0.326742446,2.43130723
-0.319217333,0.35296627,0.218866034,21.65,0.715618109,8.685007843,5.33337252,2.306499328,1.487720198,1.539152993,0.58045285,0.41471347,2.356469003
-0.235224475,-0.015534746,0.583414739,49.8,0.525369469,4.198640844,2.073745761,0.062364932,0.517474611,1.493906218,0.363893715,0.54908096,1.211920407
0.160108522,-0.171099352,0.583433166,24.65,0.253971995,6.653731064,2.891623762,0.804702994,0.542698025,1.544222744,1.906661014,0.599049126,1.256397162
0.170874105,0.048147465,0.608399287,23.5,0.208917912,8.169397175,4.577184074,2.864065747,0.571145199,1.141973128,0.745502939,0.47047878,2.376231382
-0.407298896,0.165338909,0.353045471,26.25,0.698156386,6.259326002,5.036138119,2.759464704,1.029077616,1.247595799,0.331627465,0.653768681,0.237791738
-0.023655529,0.098770095,0.109412297,21.15,0.442999072,8.625492823,3.559006319,1.879829429,0.381594067,1.297582823,1.968618259,0.822262374,2.27560587
0.273606556,0.389654514,0.215126738,24.9,0.444570045,5.607216968,3.518569017,0.958467213,1.328642795,1.231459009,0.791398809,0.437615213,0.859633928
0.038321859,0.088434105,0.63670776,122.65,0.321136296,6.242146451,3.627888068,1.992857652,0.265783652,1.369246764,0.84895489,0.361413341,1.403890151
0.469664189,-0.086145478,0.145006887,23.15,0.359562674,7.224578217,2.849200662,0.184631166,1.460068644,1.204500851,1.348226488,0.511351283,2.515799784
0.035463025,-0.429427879,0.364225629,22.4,0.492013024,7.819573636,3.477285425,1.48595551,0.915883973,1.075445942,1.543308726,0.390417713,2.408561773
-0.030326452,0.134153368,0.623055115,23.2,0.379194288,8.08511596,2.930012824,1.285254957,0.432986761,1.211771106,2.01766691,0.902027617,2.235408609
0.3139172,0.348135391,0.136597272,21.95,0.457095508,5.785533173,3.162967211,0.838690286,1.353715558,0.970561367,2.002672298,0.47756993,0.142323735
-0.169081596,-0.092449241,0.598536486,20.5,0.476605739,5.58550904,2.355094457,0.564710593,0.575237683,1.215146181,1.929362485,0.210968188,1.09008391
-0.143151456,0.145268791,0.598990313,27.0,0.466818574,5.548997994,3.85889935,2.348752094,0.292661199,1.217486057,0.210225942,0.441812863,1.038059839
-0.033669625,0.100672899,0.104697028,26.3,0.453447837,7.818308232,3.776835372,2.031701055,0.471973799,1.273160518,1.210424261,0.359525318,2.471523281
-0.471039032,0.083236299,0.133143723,21.35,0.799218114,8.833253397,5.828402234,2.955746691,1.552910516,1.319745027,1.993914285,0.70757607,0.303360807
-0.282131246,-0.184710151,0.50786152,48.6,0.584354271,7.510046098,4.595910849,2.554584907,0.699485701,1.34184024,1.376670388,0.327577509,1.209887353
-0.015481773,-0.157566799,0.619490942,25.85,0.375158971,4.99962952,3.283569582,1.679269581,0.259473548,1.344826453,1.017852966,0.346836275,0.351370697
0.198406111,-0.008552832,0.601113979,38.05,0.18540063,3.252735477,1.523230687,0.04233614,0.274459835,1.206434712,0.966484536,0.451569799,0.311450454
0.104264517,0.191496213,0.591482819,20.6,0.298983225,5.155381349,2.626097132,1.049112164,0.335291548,1.24169342,1.176115243,0.690106011,0.663062962
-0.04982509,-0.003709859,0.638597618,24.25,0.379700154,6.241828377,1.511558968,0.093691353,0.316595891,1.101271724,1.967376542,0.389015277,2.373877589
0.094742326,-0.050089832,0.09417651,27.25,0.379778933,5.212714286,2.278201456,0.526492746,0.518503265,1.233205444,1.868788203,0.649970948,0.415753679
0.282627173,0.387593944,0.154844361,20.6,0.474985345,5.813290881,3.801575834,0.940516131,1.5138521,1.347207604,0.06604259,0.509455263,1.436217194
0.047128593,0.134501514,0.621987207,25.6,0.321830901,8.238147277,2.651543927,1.165052395,0.202972537,1.283518994,2.080642161,0.983433144,2.522528046
-0.046605527,-0.102311658,0.186498832,20.35,0.409295234,9.446229153,3.388799917,2.141049845,0.012250813,1.235499259,1.848766028,1.833652851,2.375010357
0.28950068,-0.195274281,0.14621459,21.2,0.344540141,5.501608818,1.411737012,0.57424018,0.758513238,0.078983594,0.714397991,0.934461483,2.441012331
0.175876722,0.137457643,0.58894441,25.55,0.229507065,6.373921485,4.469098795,2.462426417,0.438176595,1.568495784,0.902039381,0.228126433,0.774656876
0.067214414,0.061129947,0.228810356,26.2,0.289149174,6.070191711,2.360965025,0.496691242,0.57169705,1.292576733,1.547006802,1.16724815,0.994971734
-0.408387318,-0.224844115,0.266177944,25.3,0.729898573,6.736896985,4.959148885,2.63598325,1.175679508,1.147486127,1.054043922,0.379013919,0.344690258
0.124037001,-0.130183856,0.601691603,20.65,0.259015821,5.503777961,1.960725593,0.769785809,0.146032031,1.044907753,1.21201287,0.798865256,1.532174242
-0.36751432,-0.287640009,0.252169234,20.0,0.718491243,8.136795395,4.725157756,2.472569515,1.170002263,1.082585977,1.906959101,0.548307031,0.956371507
-0.192011499,0.01930781,0.602664788,36.45,0.49084547,7.448418159,4.71306008,2.984657595,0.351807237,1.376595249,1.442292148,0.971407586,0.321658345
0.011670488,0.437889364,0.351143669,25.5,0.512672524,8.057917982,3.929969388,1.528666042,1.067943368,1.333359978,0.630081101,0.997692001,2.500175492
0.415872099,0.224375681,0.081742576,23.7,0.439632534,8.417484446,3.550289498,0.494437012,1.683795895,1.372056591,2.054999336,0.449154808,2.363040803
0.386225704,0.165230143,0.389904345,42.2,0.207715147,8.188073746,2.634358753,0.432355335,0.960065904,1.241937514,2.005841667,1.073702599,2.474170726
0.369614879,-0.300049473,0.214826057,36.85,0.38278528,7.68729436,3.321046346,0.691763938,1.350871152,1.278411256,1.190034518,0.671004278,2.505209217
0.151692133,0.119450843,0.601470803,23.4,0.239146292,4.133359269,2.024373526,0.671649395,0.222863844,1.129860286,1.515978315,0.393601626,0.199405802
0.381499722,0.286421245,0.118999275,24.95,0.437368388,7.410179029,3.606941502,0.657712755,1.600397353,1.348831394,2.067265364,0.78528101,0.950691153
0.001091903,-0.001924414,0.64555109,21.4,0.34271259,7.460925603,4.116383372,2.722855293,0.121590997,1.271937081,1.709831504,0.501104316,1.133606412
0.051336032,-0.465939049,0.066240688,22.75,0.628579994,8.29311651,4.424259602,1.450345344,1.680515272,1.293398986,2.08556619,0.704193474,1.079097244
0.388925633,-0.225020813,0.319337113,22.5,0.278515741,7.02491374,3.252266375,0.507279968,1.232951548,1.512034859,0.65492091,1.062750044,2.054976411
-0.411585129,0.065914935,0.404509063,32.7,0.68194852,6.347887898,5.298938317,2.984094299,0.978794884,1.336049134,0.096316037,0.195548305,0.757085239
-0.104451632,0.201701553,0.580798583,20.45,0.448780163,6.492030028,3.324678114,2.021610556,0.26450667,1.038560889,1.06215412,0.114572023,1.990625772
0.261708996,0.229592255,0.478061915,22.25,0.234812001,5.019220475,2.186624561,0.728903564,0.536534329,0.921186668,2.076222415,0.603140505,0.153232994
-0.001406549,0.002230989,0.643589677,21.4,0.343445663,5.088268117,1.407811106,0.021382595,0.148440745,1.237987765,0.479732351,0.672320918,2.528403742
-0.394904262,0.270110349,0.129131556,37.1,0.774911184,9.443553949,5.410200508,2.545120845,1.552926816,1.312152847,1.244363576,0.359761608,2.429228258
0.205685361,-0.080028265,0.592184654,30.3,0.191724242,8.308149342,4.668939752,2.786005987,0.573259396,1.309674369,1.211203217,0.269561264,2.158445109
-0.289552863,-0.378443438,0.147710803,22.45,0.729218998,7.60249437,4.788867748,2.219245069,1.432876459,1.13674622,0.324816796,0.108125076,2.38068475
-0.059332769,0.119735028,0.627490673,40.2,0.400073744,6.518628041,3.679116133,2.034346979,0.238210845,1.40655831,0.414001704,0.392427828,2.033082376
0.003999481,0.095760363,0.636702213,69.7,0.348276219,5.754060132,3.015881946,1.512919054,0.135392142,1.367570751,1.908994394,0.511981415,0.317202376
0.468555232,-0.017140831,0.264809578,19.95,0.260790035,5.277260755,2.916225291,0.032426024,1.372661465,1.511137802,1.992386735,0.345138027,0.023510702
-0.29992438,-0.362520732,0.261926281,78.25,0.693091126,8.334451677,4.925674293,2.262852002,1.300862718,1.361959573,1.802843165,0.458099055,1.147835164
0.259131652,-0.139843758,0.545245553,35.2,0.181894408,5.987908884,2.387353975,0.500136091,0.568644757,1.318573127,1.226213804,0.358550021,2.015791084
0.353503494,-0.320911544,0.123436513,29.9,0.451510161,6.984093497,3.587070531,0.739301957,1.552502396,1.295266177,0.849056394,0.507324057,2.040642515
0.088853442,-0.033887888,0.097850574,280.0,0.377503059,6.904131685,2.116621861,0.268423118,0.67503963,1.173159113,0.438947468,1.821785397,2.526776959
-0.012327668,0.454565532,0.307311858,23.25,0.547187554,6.992822791,3.99072502,1.62076875,1.134567341,1.235388929,1.595171709,0.956047574,0.450878488
0.015395598,0.462352559,0.267695234,37.5,0.550386911,8.142667239,4.069029384,1.568212753,1.246615116,1.254201515,2.079127682,1.288642918,0.705867255
-0.228321024,-0.01912654,0.579241952,43.45,0.517767769,8.30939472,4.633520176,2.990775749,0.394726455,1.248017972,2.050770045,1.362463521,0.262640978
0.021484771,0.376166597,0.45830671,22.45,0.44995389,7.493238406,3.477460326,1.535348288,0.754403365,1.187708673,1.912625279,0.848581454,1.254571348
-0.273412116,0.306020526,0.415254522,23.95,0.621030164,8.278373742,4.604299432,2.299078644,0.951523384,1.353697404,1.980231257,0.457044892,1.236798161
-0.370511678,-0.192227609,0.401836927,65.15,0.666098856,7.196704874,4.86710568,2.655943127,0.940569667,1.270592886,1.193894948,0.297281233,0.838423013
0.028229824,0.01154933,0.640223162,23.1,0.318790518,4.792446878,1.651023896,0.413064335,0.151664727,1.086294834,0.543055043,0.370425442,2.227942496
0.063790461,0.084842082,0.101860805,20.95,0.394258226,6.956918718,2.764727545,1.031077045,0.566964874,1.166685625,0.610927446,1.533746178,2.047517549
-0.0935936,0.03783283,0.105749145,21.75,0.48555299,9.783541416,4.644475834,2.901691944,0.458665599,1.284118291,1.73151738,1.176943291,2.230604911
0.015964337,0.007067625,0.644442403,24.95,0.330674624,4.568588637,1.761473614,0.441325804,0.112529339,1.207618472,0.173874779,0.349411192,2.283829051
-0.302694363,-0.361270559,0.088453247,36.65,0.755475126,8.317967937,5.029172325,2.268240925,1.571632048,1.189299353,0.827538983,0.434877034,2.026379596
0.079420228,-0.025711612,0.209876287,23.0,0.289479161,6.102991606,2.074262884,0.241284801,0.554182615,1.278795469,0.29038557,1.69994385,2.038399301
-0.158625432,-0.383723144,0.4026576,20.1,0.57353042,9.401225832,4.527607962,1.984127776,1.057024034,1.486456153,1.884386934,0.880790503,2.108440433
-0.229334127,-0.414454642,0.227876451,25.8,0.676906836,7.850239263,4.622636926,2.062331764,1.308762684,1.251542479,1.290941402,0.75865738,1.178003555
-0.194093553,-0.031994858,0.597728524,24.3,0.491707828,8.165426892,4.416334399,2.911422019,0.282433713,1.222478667,1.510710626,1.088286999,1.150094868
0.331609876,-0.32156214,0.293738205,25.45,0.35493191,6.114537045,3.282643662,0.778552595,1.199470751,1.304620316,1.347811435,0.625438249,0.858643699
-0.006679528,0.1951114,0.598942122,20.05,0.376430956,6.665548604,3.296189199,1.676189187,0.329642467,1.290357545,1.987036606,1.21380593,0.16851687
0.3374193,0.325340914,0.266487463,56.1,0.370492368,6.022254363,3.28170295,0.759256876,1.247190931,1.275255144,1.969832796,0.624404501,0.146314115
0.017867358,0.265911672,0.564547775,48.95,0.388630769,5.904981464,3.214232848,1.497680998,0.465347875,1.251203974,0.582951955,0.302397884,1.805398777
-0.178509909,0.024932226,0.609864269,23.4,0.481262888,4.610346031,1.927504655,0.134535262,0.498490442,1.29447895,0.242476692,0.585887933,1.854476751
-0.106032998,-0.05488516,0.086194115,20.45,0.509393461,9.077371785,4.370230859,2.620821478,0.58261452,1.16679486,1.801788013,0.680369307,2.224983606
0.0924442,0.052231176,0.632596614,22.75,0.272980649,4.576479434,1.797600215,0.459145647,0.092625847,1.245828721,1.663013362,0.70873613,0.407129727
0.073284268,-0.011623601,0.640434011,32.05,0.286786944,3.7850831,1.581273761,0.167421007,0.073475558,1.340377196,1.285476438,0.472041351,0.446291549
-0.200189086,0.012793789,0.601951503,31.3,0.498133997,6.252619087,1.982497253,0.082063331,0.458352534,1.442081388,1.608430082,0.271442143,2.390249611
-0.331780095,-0.183668906,0.456495684,22.75,0.626711715,7.092497221,4.598142452,2.644615731,0.75783787,1.195688851,1.488031718,0.59374214,0.41258091
0.017198162,0.14879962,0.61945679,22.2,0.34740048,7.37799087,3.337146993,1.667593886,0.486727596,1.182825511,1.314204467,0.564738774,2.161900636
-0.061815465,0.071868116,0.264842984,27.05,0.37418763,6.132965211,4.174130047,2.334352093,0.60810126,1.231676694,0.276183913,1.677639583,0.005011668
-0.098066978,-0.148114723,0.610216781,27.6,0.433388745,7.850241191,3.737258144,2.126294947,0.283248939,1.327714258,0.847549382,0.765447332,2.499986332
0.027436823,0.25840121,0.556881706,27.1,0.374655308,6.651337825,2.988474887,1.462957103,0.376809528,1.148708256,0.043204345,1.106680598,2.512977996
-0.037376168,-0.149200754,0.619935164,25.15,0.388821355,7.259111957,3.245097561,1.800461187,0.197344711,1.247291663,1.171862755,0.314724771,2.52742687
0.010544042,-0.038183638,0.52763064,20.2,0.27710035,7.988663706,2.432665105,1.734171909,0.577871533,0.120621663,1.385830899,1.810806973,2.359360728
0.073519331,0.086548693,0.632166615,20.75,0.293318414,7.155098404,3.936721473,2.280384826,0.333503909,1.322832738,0.313004515,0.525788863,2.379583553
-0.017541594,0.113782309,0.621891498,20.6,0.361869032,6.704122561,3.216121963,1.782813481,0.169481529,1.263826953,0.346494438,0.739894452,2.401611707
-0.089419325,-0.416326406,0.366224739,20.6,0.55143371,6.56982652,3.6216847,1.78257951,0.858183513,0.980921677,0.112454643,0.399316135,2.436371042
-0.045846067,-0.081312671,0.106866499,20.0,0.456215278,8.082704238,3.688398474,1.946318892,0.444835391,1.297244191,1.379119136,1.086272677,1.928913951
-0.090934556,-0.16541608,0.605838331,23.25,0.431937168,6.693158688,2.85248014,1.046119425,0.523001289,1.283359426,0.982575614,0.668194708,2.189908226
-0.380415935,-0.282270333,0.155418279,19.9,0.757098522,8.208802815,5.636294693,2.482747353,1.634973807,1.518573533,0.671671128,0.354683402,1.546153593
0.083975047,0.012463325,0.204408226,20.3,0.289811239,5.959418143,2.027036517,0.118128103,0.596160229,1.312748185,0.156374133,1.27812375,2.497883743
-0.17121264,0.261010763,0.526829364,20.9,0.519169678,8.185326326,3.934909349,2.174591364,0.558715857,1.201602128,1.629756409,0.777560324,1.843100243
0.146124481,0.018269316,0.6172623,22.15,0.22428885,4.689180125,1.404562008,0.093228754,0.133255349,1.178077905,0.591672154,0.828187472,1.864758492
0.25594983,0.394417027,0.078317466,25.35,0.527909331,6.536457865,3.836381339,0.999393046,1.611779423,1.22520887,1.439833966,0.530592435,0.729650125
0.079538155,-0.023932865,0.11837625,45.2,0.363525908,4.212390133,1.922811393,0.185644979,0.46077569,1.276390723,0.444726622,1.700560738,0.144291381
-0.173657234,-0.013807849,0.59545775,22.5,0.471046239,7.224219336,1.870905978,0.187085065,0.60638928,1.077431634,1.421715009,1.498393106,2.433205242
-0.178735611,-0.108663547,0.594525443,20.7,0.487473639,7.817151951,4.009903114,2.5944907,0.268528638,1.146883776,0.884194198,0.450481922,2.472572717
-0.33855556,-0.332382429,0.155332013,23.65,0.742747977,7.612151056,5.034156858,2.365522642,1.435403686,1.23323053,0.007756558,0.905696755,1.664540885
0.365018803,0.290533327,0.056307227,32.95,0.48267929,7.421290269,3.663294698,0.680363402,1.694853991,1.288077305,1.842407818,0.619483889,1.296103864
-0.239548748,-0.323080729,0.427903685,59.1,0.600523566,8.54233287,4.470620044,2.202381462,0.917090563,1.351148019,1.293158307,0.563442103,2.215112416
-0.27866667,-0.332693693,0.366139409,26.1,0.641988111,7.658579285,4.455664842,2.255160578,0.992368085,1.208136179,2.006045501,0.726485641,0.470383302
0.060102053,-0.469893338,0.096313358,26.1,0.61165409,9.725546495,4.730153547,1.443394172,1.744836255,1.541923119,2.079177712,0.435374106,2.48084113
-0.214120452,-0.071294617,0.587012754,20.5,0.511008415,6.130335053,4.494823438,2.810443326,0.378445768,1.305934344,0.304985595,0.782371495,0.548154525
-0.097130889,-0.097328512,0.062753576,35.2,0.525342368,9.222307376,4.058549598,2.228950412,0.882472026,0.94712716,0.929655019,1.89599703,2.338105728
0.131563496,0.066949186,0.620441235,20.1,0.243639826,4.427513832,1.879485368,0.418728427,0.205622535,1.255134405,0.732114909,0.117281338,1.698632216
-0.396787612,-0.167937237,0.370087038,23.6,0.686948041,9.126819553,4.830692475,2.743473292,0.942865619,1.144353564,1.974053442,0.489060437,1.833013199
-0.275275464,0.027977279,0.485949925,21.35,0.545649777,9.217957489,3.815299251,2.963241476,0.247768703,0.604289072,1.767450281,1.146260846,2.488947112
-0.126491553,-0.148581609,0.601220993,22.3,0.454180381,6.141890546,3.743912517,2.286122002,0.27923498,1.178555535,0.162195771,0.150701316,2.085080941
-0.007808791,0.192284186,0.605933434,20.5,0.378928025,6.270736824,3.226721925,1.596754167,0.319185801,1.310781957,0.976012413,0.283493168,1.784509318
-0.447113798,-0.064318273,0.16355336,20.0,0.764296551,10.06578744,5.217683611,2.956484202,1.289358736,0.971840673,1.132049856,1.762525226,1.953528749
0.427075353,-0.204813554,0.232223357,25.65,0.32621067,4.962936985,2.935188333,0.442087209,1.282751599,1.210349524,1.253444816,0.327654639,0.446649197
0.090097262,0.167537447,0.6042777,21.0,0.29996227,7.464532479,2.562311116,1.031013369,0.286414405,1.244883342,2.033416947,0.90935121,1.959453205
0.056217143,0.17840052,0.607856638,31.8,0.328783068,8.446362581,3.708197539,1.900405637,0.491488438,1.316303464,1.914657912,0.660197757,2.163309373
-0.014587902,0.077280011,0.136975689,26.05,0.412707315,7.930617102,3.454627555,1.846457465,0.292299486,1.315870604,0.330241286,1.911091677,2.234656584
-0.284739394,0.262069759,0.450249981,31.5,0.610980464,5.554828463,4.580721995,2.394887964,0.860098501,1.325735531,0.204224509,0.175996544,0.593885415
0.057888486,0.024263713,0.64084008,21.1,0.298512688,6.162346983,1.665675998,0.424955582,0.005743628,1.234976788,1.870729519,0.520205068,2.105736398
0.294480918,0.170969754,0.504838659,70.6,0.189073454,5.477845944,2.607846402,0.532370713,0.719464188,1.356011501,0.833032216,0.305707215,1.73126011
-0.128485037,-0.454758797,0.25154564,67.65,0.628105861,6.425034677,4.507605037,1.845286051,1.321348403,1.340970584,0.096517396,0.218926738,1.601985505
0.031700642,-0.461842441,0.283058165,34.9,0.538377791,7.458164917,3.950369884,1.516843736,1.187805102,1.245721046,1.282321068,0.76860314,1.456870825
-0.044554064,0.101319806,0.085748681,97.35,0.47440889,8.114675994,3.761771452,1.927228722,0.760183515,1.074359214,0.301022296,1.888726275,2.16315597
0.133098161,-0.45268361,0.083131204,20.75,0.585235101,7.747156576,4.280477013,1.270476299,1.66822732,1.341773395,1.353702226,0.110189276,2.002788062
-0.248998918,-0.221376793,0.511296212,24.85,0.567224584,7.306368251,4.399535654,2.421199143,0.66946055,1.30887596,1.525043781,0.535338771,0.846450045
-0.04759046,0.056900201,0.640085111,20.05,0.38280841,8.17444979,3.886595724,2.243670511,0.154887102,1.488038111,1.944443359,0.521858917,1.821551791
0.114382583,0.014606948,0.067907655,75.8,0.392143487,5.275255869,2.117448908,0.233086709,0.851492114,1.032870086,0.63505539,1.691537176,0.831214396
-0.012779926,0.096599913,0.130753447,20.05,0.419995562,9.613577017,3.63627048,1.887683533,0.475272628,1.273314319,1.997603919,1.570186636,2.409515981
-0.252961732,0.391501392,0.068337984,20.05,0.743931259,9.304193354,5.16977075,2.171151051,1.688259117,1.310360582,1.817447728,1.069960848,1.247014028
0.170627722,0.146739786,0.582681534,24.25,0.233152071,2.887934003,2.097657202,0.737607417,0.291780888,1.068268896,0.510708934,0.175376342,0.104191525
-0.181935376,-0.351289673,0.433786717,24.0,0.569877506,7.664020407,4.077343943,2.054143751,0.818727207,1.204472985,0.968105282,0.561063651,2.05750753
-0.162555646,0.448359481,0.11248383,20.1,0.6968286,9.64281851,4.906592019,1.924787585,1.616848819,1.364955615,1.852748336,0.581511914,2.301966241
-0.32276604,0.061969938,0.498563245,19.85,0.596852827,9.663638028,4.422859385,2.912716968,0.517348871,0.992793547,1.71508353,1.078374886,2.447320227
0.156242712,0.223620743,0.559522745,22.0,0.281546681,6.453311615,2.754618831,0.977619114,0.491729202,1.285270516,1.95691022,0.212845582,1.528936983
0.357530578,0.212480765,0.404378823,25.4,0.232421819,4.394282952,2.72081386,0.527931552,0.933593198,1.25928911,0.761260419,0.204266456,0.707942218
-0.003454348,0.001027197,0.642044906,20.0,0.344031501,6.62751123,1.634038446,0.305745277,0.20714405,1.121149119,2.075683406,0.438749386,2.479039992
-0.228369597,0.410062177,0.261570463,21.55,0.66435257,9.033064402,4.629100598,2.066875366,1.266464683,1.295760549,1.649504658,0.702895382,2.051563764
-0.262078821,-0.071044915,0.560393855,20.15,0.549390025,7.591641322,4.551743884,2.879536873,0.456971548,1.215235462,0.485549447,0.373621433,2.180726558
-0.097114137,-0.025943436,0.142774233,31.6,0.463624058,7.218274569,4.239995411,2.88614325,0.019788903,1.334063257,0.184439828,0.575675833,2.218163497
-0.004052013,0.00545961,0.645823054,25.25,0.346875304,3.882123525,3.339937755,1.975978603,0.09688347,1.267075682,0.320444173,0.199819076,0.02192252
0.061024667,-0.074929364,0.188162216,24.8,0.325521629,7.628762302,2.387529731,0.702435114,0.351093343,1.334001274,1.305888997,1.453850565,2.481493009
0.218219951,0.41933783,0.096229174,23.35,0.537502146,5.289770674,3.925871309,1.094779436,1.580248539,1.250843334,0.415822242,0.640114173,0.30796295
-0.357372342,-0.224146584,0.388520204,22.95,0.664371472,8.327812796,4.991042958,2.564620504,1.023484217,1.402938237,0.762220528,0.92894007,1.64560924
-0.435525828,0.199867156,0.186964676,21.05,0.769159967,8.447150213,5.426195914,2.704923041,1.425162252,1.296110621,1.970077809,0.589268085,0.461608405
0.351116365,-0.2170735,0.409520409,28.9,0.233798563,6.770419542,2.860182077,0.570136455,0.958890479,1.331155143,1.994151885,0.786876159,1.129209422
-0.323267,0.324119516,0.077484146,20.1,0.759434959,8.005007241,4.700522417,2.340961863,1.4552119,0.904348653,0.979506272,0.085105642,2.23987291
0.318141225,0.04407421,0.519653064,23.8,0.113074335,5.288778129,1.914319531,0.151118698,0.576143262,1.187057571,1.824966053,0.649030554,0.900461991
0.408074306,-0.20316663,0.309445891,20.65,0.274949546,5.427347554,2.907480506,0.443165128,1.163065471,1.301249908,1.480658465,0.847593232,0.19161535
-0.054873474,-0.073943067,0.206872002,20.4,0.397756984,7.519236626,3.917646768,2.157759226,0.499196211,1.260691331,0.250770077,1.516176149,1.834643633
-0.338626794,-0.300238615,0.324820157,39.05,0.683644603,7.408237518,5.08873939,2.423108822,1.211207474,1.454423095,1.132542244,0.602293574,0.584662309
-0.354100962,-0.318280477,0.199373434,21.35,0.734546342,8.03258337,5.008327021,2.423223681,1.357467312,1.227636029,1.39126613,0.751681709,0.881308509
0.018008083,-0.460984275,0.298587925,48.05,0.539729997,6.41204851,4.063561529,1.532150076,1.212437306,1.318974146,0.041694093,0.1308156,2.175977288
0.253307177,-0.224659528,0.504108274,21.15,0.237149931,5.262008693,2.572372148,0.725205126,0.635713383,1.211453639,0.734539123,0.437624624,1.517472797
-0.459056327,0.115186218,0.209903189,23.1,0.766777015,9.990725645,5.307850147,2.877911502,1.295042114,1.134896531,1.971687326,0.870377035,1.840811137
-0.38549971,0.134848888,0.413071712,28.2,0.666117155,8.020339554,4.866440366,2.818776421,0.864199013,1.183464932,1.793958491,0.710899009,0.649041688
0.059796617,0.009151388,0.642440732,24.55,0.297378738,5.639670185,4.502709175,2.978312598,0.221454675,1.302941902,0.207276901,0.29753411,0.632149999
-0.027088087,0.158081373,0.617413973,25.05,0.383067875,6.651243302,3.225304877,1.751149741,0.214255147,1.259899989,0.907656693,0.54125527,1.977026463
-0.25898925,0.122756529,0.550822322,28.6,0.553301203,8.95411867,4.521358747,2.698177577,0.532421603,1.290759567,1.74393345,0.449332066,2.239494407
-0.406809413,-0.0858113,0.405152237,28.95,0.679362334,5.979146541,5.173799112,2.933795708,0.943246392,1.296757011,0.012487293,0.470694905,0.322165231
0.001472717,-2.91e-05,0.646101952,23.05,0.342772668,6.838349599,2.499896015,1.088268929,0.090888527,1.320738558,1.653664014,0.380129352,2.304660217
-0.100070402,-0.011173296,0.634652882,28.65,0.420707624,4.297898353,1.714566737,0.13639473,0.333233476,1.244938531,0.445627257,0.161001122,1.976703236
0.240579956,0.069425528,0.575491797,42.4,0.164252762,7.029859781,2.27607863,0.291208202,0.530532716,1.454337713,1.834681428,0.563522136,2.355577586
-0.083902259,0.074490292,0.632753765,48.9,0.412238755,8.459422599,3.853494401,2.3846534,0.14708633,1.321754671,1.926219675,0.606000515,2.073708007
-0.45273085,-0.063269279,0.28579976,22.25,0.736249315,10.78190791,5.475800311,2.966349679,1.214198352,1.295252281,1.635385933,1.308561613,2.362160052
0.023297899,0.0911074,0.183107231,20.95,0.357856559,8.171875875,2.548061296,1.107255743,0.110935121,1.329870432,1.80902067,1.474728933,2.340064975
-0.178718187,0.207984692,0.560139024,26.65,0.508689091,5.512323876,4.096413822,2.273612006,0.513338787,1.309463029,0.899850661,0.324305463,0.19175393
-0.070149002,-0.449867776,0.319129893,76.2,0.572606921,5.984220434,4.245827195,1.725407723,1.174094699,1.346324773,0.007218983,0.316409938,1.414764318
-0.160846423,-0.448544023,0.225493105,34.4,0.652168862,7.043801019,4.615378553,1.919266891,1.366185101,1.329926561,0.607772104,0.279245795,1.541404567
0.415969451,0.235290914,0.184882078,23.5,0.370422861,7.726694412,3.163957159,0.527691841,1.399292097,1.236973221,1.877261541,0.743180462,1.942295249
-0.404026106,-0.232930211,0.053853557,20.9,0.803046017,10.06353099,5.671083716,2.611164532,1.723927674,1.33599151,1.616450278,0.602260294,2.173736705
0.150498676,-0.054447559,0.618813502,21.85,0.229053108,6.4720881,2.049898174,0.336678421,0.297432433,1.41578732,2.049783867,0.354780616,2.017625443
-0.067041414,-0.058888784,0.11605415,22.8,0.461318208,8.831412282,4.328332046,2.596630535,0.450155362,1.28154615,0.901739876,1.587627916,2.013712444
-0.110107777,-0.007420603,0.096315761,30.7,0.502728844,9.580448997,4.692705971,2.933350767,0.588244872,1.171110332,1.037702639,1.412070087,2.4379703
-0.332027984,0.037219138,0.072459525,20.05,0.697872553,7.232075581,4.084036975,2.981471316,0.980021339,0.12254432,1.700287159,1.283020651,0.164730796
-0.186392271,0.017846553,0.573007899,20.6,0.475746301,9.034765147,3.875482692,2.95370621,0.073182245,0.848594237,2.085877035,0.698525639,2.374879781
-0.16651457,0.145402093,0.591462527,22.85,0.484900567,9.07322492,4.121362073,2.393919324,0.396961964,1.330480785,1.858378503,0.76008314,2.333401205
-0.067039227,0.075272105,0.102019506,26.85,0.473339254,6.719324144,4.158591856,2.395032139,0.586723855,1.176835863,0.5071212,1.615827319,0.43778377
-0.105468978,0.468195255,0.182458041,104.4,0.646866066,6.263584059,4.643298735,1.796416117,1.480695651,1.366186967,0.362677464,0.180309903,1.077297958
0.113137347,-0.022107862,0.056147967,63.9,0.403943007,6.461188101,2.001742011,0.047596229,0.942531449,1.011614333,0.910449694,1.753324273,1.795672122
-0.111828562,-0.427440606,0.354258199,68.35,0.575767908,6.087535935,4.303866125,1.828031017,1.103610016,1.372225093,1.025525098,0.47137674,0.286767971
0.04496164,0.080484367,0.18820625,21.8,0.337092953,6.230514304,2.321629302,0.872211863,0.109765549,1.33965189,1.693491032,1.772736391,0.442657579
0.001587608,-0.008439069,0.645006879,22.3,0.342000797,6.210893136,1.876112581,0.44836961,0.072203061,1.35553991,1.859344772,0.84812526,1.627310523
-0.011218762,0.086327918,0.109470463,32.8,0.432289374,7.57547871,3.460410885,1.684721022,0.543683752,1.232006111,0.067240343,1.663520364,2.384307118
-0.141942251,-0.073783709,0.605570147,19.85,0.45121495,7.50160605,3.636589044,2.660138983,0.046063389,0.930386672,0.978172544,0.455511814,2.431332649
0.103533433,0.087302652,0.050240525,20.35,0.421642169,7.343220778,2.696556916,0.827638803,0.940140489,0.928777623,0.963460373,1.714850607,1.968352883
0.063168724,-0.022018698,0.641412205,27.8,0.294963582,5.9629378,4.318077862,2.786480036,0.244519458,1.287078369,0.473289054,0.302499295,0.869071588
0.10800373,0.064307382,0.629119247,21.75,0.263269399,5.345249388,2.226094205,0.518118956,0.24669967,1.46127558,2.045017508,0.31545895,0.758678724
0.055261573,-0.1356522,0.62347918,71.45,0.317448291,6.300044086,3.681924273,1.957988921,0.39642437,1.327510982,0.168596553,0.395307065,2.054216195
0.067673287,0.006120111,0.114232946,176.35,0.372414765,4.165097575,1.951434008,0.138255029,0.483859904,1.329319074,0.174693023,1.484874736,0.554095808
-0.066501131,0.061821114,0.201936004,25.25,0.408011827,8.029761309,4.156182287,2.412718084,0.471629258,1.271834945,0.092697264,1.513820104,2.267061655
-0.09845472,-0.032232427,0.63400838,20.9,0.42000406,6.412437639,4.147447462,2.828017805,0.085576031,1.233853626,0.11519011,0.297647421,1.852152645
0.467427057,-0.107966121,0.151410593,22.95,0.359267474,5.407770266,3.059276022,0.223311285,1.513722449,1.322242288,0.918149841,0.334348404,1.095996
-0.236203274,0.015176614,0.343009156,24.15,0.510485291,8.348913086,3.415264832,2.987533647,0.040377679,0.387353506,1.355989181,1.178395316,2.399263758
0.441146463,-0.035094475,0.345200381,23.75,0.196643167,5.15688814,2.271983825,0.086755263,1.016078855,1.169149707,2.0007105,0.604996421,0.279197393
0.146436653,-0.379170374,0.411500279,23.75,0.398141245,4.041530089,3.177142946,1.202488666,0.856920436,1.117733844,0.009956086,0.236421867,0.61800919
0.126183486,0.210090557,0.577334049,21.2,0.293099472,6.212636994,2.687133777,1.046622027,0.403684816,1.236826934,1.932464395,0.639352695,0.953686128
0.058465596,-0.413205569,0.395175596,22.25,0.463923079,7.52197524,3.567040006,1.446040041,0.909879045,1.21112092,1.001760687,0.80881907,2.144355477
0.111054413,0.0415896,0.074938364,256.1,0.389061693,5.697339418,2.097959253,0.295339864,0.686394097,1.116225292,2.082609705,0.038397755,1.478372705
-0.085627026,0.02654833,0.115394527,25.8,0.47237869,6.813940326,4.626416599,2.914616524,0.466716225,1.245083851,0.333218121,1.615753599,0.238552007
-0.079818048,-0.027266988,0.117572792,22.65,0.466789874,8.661906973,4.540447527,2.858918693,0.397004759,1.284524076,0.224877781,1.385211416,2.511370249
0.025753127,-0.116198296,0.054250957,21.25,0.460450949,5.77370292,3.182034116,1.302620503,0.869669845,1.009743768,0.430542482,1.157837642,1.003288679
-0.410778894,-0.180446311,0.320900429,23.05,0.709363006,7.648372285,4.820631261,2.727157059,1.017293768,1.076180434,0.302162505,0.388223305,2.137355214
0.324435482,0.259185078,0.405109262,21.05,0.26656846,5.264987745,2.984803825,0.682540321,0.961536769,1.340726734,0.867338752,0.658402609,0.754442559
0.433731357,-0.178414978,0.067123549,22.05,0.436761982,7.86676085,3.334379812,0.393112993,1.663878885,1.277387935,1.667639324,0.377936235,2.486805479
-0.018281163,-0.126626228,0.628929211,22.7,0.370418986,6.472320035,3.257035302,1.723979856,0.189741285,1.34331416,1.72585549,0.383680697,1.105748546
-0.206818999,0.414939904,0.064397792,22.75,0.727586562,8.348908869,4.751187816,2.023236555,1.589702809,1.138248451,0.909138241,0.716665932,1.97191688
-0.28892551,0.292035829,0.411652233,20.1,0.627876378,6.539022882,4.436929732,2.350166938,0.883317023,1.203445771,0.085402521,0.298811238,1.717879391
0.037929432,0.103938137,0.633649795,206.45,0.324019841,6.139631352,3.571458672,1.92394279,0.30906349,1.338452391,0.148013913,0.308920156,2.111238612
-0.431808475,0.078280468,0.3490363,25.85,0.707388789,7.903852759,5.088780565,2.964663668,0.981223496,1.142893401,0.281892731,0.608034185,1.925145277
0.283509248,-0.325029995,0.369654122,19.9,0.330887077,7.831021845,3.04459005,0.834733318,0.985560328,1.224296405,1.48297374,0.822272873,2.481185181
-0.005435203,-0.090109552,0.157607535,21.05,0.394788018,5.382469244,2.968474584,1.655710361,0.015690854,1.297073369,0.114146294,1.600949756,0.69889861
-0.042496239,0.095590725,0.303359308,22.45,0.347217387,8.740180927,3.745765082,2.116881241,0.603145318,1.025738522,0.912488364,1.821399798,2.260527684
0.080256423,0.042723549,0.15624433,32.15,0.333215214,5.278187533,1.701819981,0.384677289,0.017415616,1.299727076,0.478247714,1.672241339,1.425878499
-0.072809396,-0.06523396,0.103151902,29.15,0.475193297,7.578684598,4.029336227,2.284248754,0.500910005,1.244177468,0.983873823,1.19046068,1.375013868
0.002603052,-0.034376858,0.637765089,20.0,0.338406092,5.111379319,2.705761499,1.511339692,0.174002383,1.020419424,0.145601135,0.284626146,1.975390539
0.103051204,-0.315824012,0.512151287,22.5,0.365385577,6.252744417,3.219515923,1.26213928,0.661006603,1.296370041,1.380901322,0.338301529,1.314025643
0.108960984,-0.11600656,0.617498941,23.5,0.271799931,6.83403485,2.738328266,0.844783587,0.361287306,1.532257372,1.537433671,0.230717293,2.327555619
0.431475267,-0.190204874,0.255490462,23.95,0.30564008,3.95900821,3.007753308,0.415086191,1.286665872,1.306001244,0.040463244,0.375384482,0.535407176
0.003883008,0.1073896,0.082005418,55.75,0.448454026,7.178420677,3.33910736,1.523448948,0.622716467,1.192941945,1.875079164,0.380856384,1.583377768
0.334436657,0.143566452,0.479594005,153.4,0.166587326,5.189708701,2.516090557,0.404752411,0.780433802,1.330904344,0.092102028,0.283216376,2.298299741
-0.229031259,0.023192512,0.577159929,24.3,0.517990793,8.400131059,4.363428807,2.98478761,0.302162456,1.076478742,2.022615324,1.153615597,0.860471331
0.065401836,-0.472592746,0.173155169,22.55,0.573899405,7.434371652,3.983956215,1.432230441,1.382605216,1.169120558,1.725846289,0.416566318,1.30800283
-0.209539904,0.34111422,0.427501698,21.7,0.585871367,6.903312297,4.31652637,2.1060451,0.892168877,1.318312393,1.052077364,0.779098114,0.755610449
0.217723643,0.052760919,0.589141632,36.95,0.175621557,5.850249939,2.278500847,0.255920451,0.500529015,1.522051382,1.934556287,0.238884808,1.398307996
0.082275512,0.002869885,0.630578173,20.8,0.273112059,5.686730343,1.106532635,0.011677942,0.08303267,1.011822024,1.541851654,0.527982609,2.510363446
-0.287833718,0.270613567,0.437749498,33.5,0.617049564,6.179987385,4.830383381,2.387607584,0.959381772,1.483394025,0.088476051,0.554969012,0.706158941
0.207701177,0.19048128,0.551464993,22.5,0.233934758,6.500993685,2.514088291,0.774827299,0.503953703,1.23530729,2.031543844,0.930049188,1.025312361
-0.258322317,-0.002796198,0.552567453,157.05,0.539344222,5.186378348,2.077774803,0.03546639,0.546033819,1.496274595,0.60167836,0.898072513,1.608852671
-0.052344224,0.085071564,0.103661106,27.8,0.463511103,8.264574867,3.757763672,1.988707488,0.572683689,1.196372495,0.719766151,1.625599528,2.161445516
0.142803062,0.271592003,0.530409202,25.6,0.315228762,5.830470232,2.894727894,1.090433662,0.554587188,1.249707044,0.150058055,0.803248876,1.982435407
-0.25258066,-0.405562073,0.203178485,22.95,0.696522081,6.926648342,4.737449324,2.130478659,1.368319341,1.238651324,0.231470446,0.196054755,1.761673818
-0.389397804,0.040073315,0.353495486,25.5,0.661678379,9.435561933,4.326313452,2.985354701,0.686872872,0.654085879,1.537465448,1.75086414,1.820918892
0.239547354,0.377314808,0.34107311,22.25,0.388295191,7.761888923,3.488962111,1.01118828,1.123403774,1.354370057,1.695516662,0.309840099,2.267570051
0.407660529,-0.229714996,0.268177396,22.7,0.313885416,5.419677493,3.043005326,0.511245383,1.242275101,1.289484842,0.352975123,0.565967687,1.457729357
-0.060938974,-0.079370049,0.634776086,21.6,0.394869031,7.387984024,3.563237969,2.22775641,0.082118751,1.253362808,1.284153389,0.425545025,2.115047642
0.429362409,0.166183262,0.29396906,25.35,0.268973148,5.340182177,2.702494643,0.3696173,1.139636887,1.193240456,1.446231872,0.446229474,0.745226188
0.193039653,-0.013735281,0.602553205,30.2,0.188953811,2.847551781,1.458476937,0.059145769,0.242408634,1.156922534,0.760668728,0.282106629,0.346299487
-0.446000644,-0.120469932,0.113962327,21.45,0.788454539,8.803333953,5.184076543,2.866131031,1.376135252,0.941810261,0.745343294,0.81201724,2.061896876
0.215830056,-0.376089215,0.360782701,20.75,0.385546863,5.520423366,3.077585055,1.053893325,0.937941217,1.085750513,0.45587572,0.251576742,1.735385849
-0.036664426,0.020807223,0.643322065,23.3,0.371994848,7.345191743,3.900522813,2.607489293,0.042363039,1.25067048,2.054508709,0.395278776,0.994881446
0.150457349,0.408413932,0.350293744,20.05,0.431924428,8.874594271,3.591024487,1.179456295,1.087850531,1.323717661,1.709281053,1.33241114,2.241877591
-0.229701374,-0.211736727,0.528287026,20.5,0.548711132,7.913596034,4.17987914,2.40251955,0.562339492,1.215020097,1.413744749,0.521398454,1.798573692
0.031778098,-0.4473305,0.329648024,20.05,0.514873434,7.177576351,3.785098382,1.4959197,1.06797322,1.221205462,0.405106579,0.641607524,2.345763867
0.465180496,-0.113675323,0.19828022,27.6,0.324932548,5.956596932,3.180589684,0.238362073,1.488608218,1.453619393,0.265230214,0.327714487,2.183062547
-0.222511032,-0.015789659,0.575003309,42.3,0.510865766,7.156325273,4.411496726,2.999696567,0.288894207,1.122905951,1.123228749,1.378776087,0.242823711
0.133723864,0.444196394,0.274347892,20.05,0.488831907,5.651927143,3.751717743,1.265450397,1.239228558,1.247038788,0.432630562,0.279467943,1.188110896
